; Generated by AI Handwriting Robot
G21
G90
G1 F800
M5
G0 X12.77 Y25.06
G4 P50
M3 S460
M3 S460
G1 X12.77 Y25.06 F400
G1 X12.78 Y25.48
G1 X12.79 Y25.89
G1 X12.83 Y26.32
G1 X12.91 Y26.75
G1 X12.93 Y27.19
M3 S475
G1 X12.96 Y27.61 F512
G1 X13.07 Y28.01
G1 X13.17 Y28.44
G1 X13.25 Y28.86
G1 X13.21 Y29.26
G1 X13.28 Y29.71
M3 S508
G1 X13.17 Y30.15 F766
G1 X13.29 Y30.61
G1 X13.29 Y31.01
G1 X13.18 Y31.47
G1 X13.08 Y31.80
G1 X12.71 Y32.00
M3 S536
G1 X12.26 Y31.84 F970
G1 X12.05 Y31.47
G1 X12.01 Y31.04
G1 X12.04 Y30.62
G4 P30
M5
M5
G0 X11.24 Y25.31
G4 P50
M3 S460
M3 S460
G1 X11.24 Y25.31 F400
G1 X11.96 Y25.49
G1 X12.54 Y25.60
G1 X13.12 Y25.55
G4 P30
M5
M5
G0 X11.01 Y25.32
G4 P50
M3 S460
M3 S460
G1 X11.01 Y25.32 F400
G1 X11.19 Y25.29
G1 X11.17 Y25.31
G1 X11.24 Y25.32
G4 P30
M5
M5
G0 X10.89 Y25.31
G4 P50
M3 S460
M3 S460
G1 X10.89 Y25.31 F400
G1 X10.46 Y25.57
G1 X10.28 Y25.92
G1 X10.13 Y26.44
G1 X10.14 Y26.87
G1 X10.55 Y26.86
G4 P30
M5
M5
G0 X17.72 Y25.71
G4 P50
M3 S460
M3 S460
G1 X17.72 Y25.71 F400
G1 X17.95 Y26.04
G1 X17.92 Y26.50
G1 X17.60 Y26.80
G1 X17.59 Y27.27
G1 X17.56 Y27.73
M3 S520
G1 X17.30 Y28.09 F850
G1 X17.03 Y28.34
G1 X16.85 Y28.69
G1 X16.44 Y28.90
G4 P30
M5
M5
G0 X17.79 Y25.74
G4 P50
M3 S460
M3 S460
G1 X17.79 Y25.74 F400
G1 X17.60 Y26.03
G1 X17.53 Y26.41
G1 X17.68 Y26.85
G4 P30
M5
M5
G0 X17.19 Y28.29
G4 P50
M3 S460
M3 S460
G1 X17.19 Y28.29 F400
G1 X17.28 Y28.75
G1 X17.23 Y29.19
G1 X17.29 Y29.63
G1 X17.15 Y30.09
G1 X17.50 Y30.53
M3 S505
G1 X17.70 Y30.34 F742
G1 X17.87 Y29.99
G1 X18.06 Y29.60
G1 X18.35 Y29.26
G1 X18.69 Y28.97
G1 X18.84 Y28.62
G4 P30
M5
M5
G0 X18.74 Y28.87
G4 P50
M3 S460
M3 S460
G1 X18.74 Y28.87 F400
G1 X18.91 Y29.32
G1 X19.02 Y29.77
G1 X18.94 Y30.19
G1 X19.04 Y30.62
G1 X19.07 Y31.07
M3 S520
G1 X19.14 Y31.55 F850
G1 X19.48 Y31.60
G1 X19.82 Y31.27
G1 X19.94 Y30.86
G4 P30
M5
M5
G0 X17.21 Y30.62
G4 P50
M3 S460
M3 S460
G1 X17.21 Y30.62 F400
G1 X17.19 Y31.04
G1 X17.09 Y31.54
G1 X17.06 Y32.02
G4 P30
M5
M5
G0 X22.92 Y27.05
G4 P50
M3 S460
M3 S460
G1 X22.92 Y27.05 F400
G1 X22.76 Y27.41
G1 X22.43 Y27.63
G1 X22.30 Y27.97
G1 X22.21 Y28.39
G1 X21.99 Y28.80
M3 S487
G1 X21.91 Y29.14 F607
G1 X21.74 Y29.61
G1 X21.86 Y30.00
G1 X21.63 Y30.40
G1 X21.44 Y30.77
G1 X21.44 Y31.21
M3 S532
G1 X21.30 Y31.59 F942
G1 X21.04 Y31.94
G1 X20.82 Y31.68
G1 X20.63 Y31.27
G4 P30
M5
M5
G0 X23.13 Y27.37
G4 P50
M3 S460
M3 S460
G1 X23.13 Y27.37 F400
G1 X23.21 Y27.57
G1 X23.39 Y27.77
G1 X23.48 Y27.97
G4 P30
M5
M5
G0 X23.10 Y27.99
G4 P50
M3 S460
M3 S460
G1 X23.10 Y27.99 F400
G1 X23.14 Y28.41
G1 X23.20 Y28.85
G1 X23.24 Y29.27
G1 X23.30 Y29.66
G1 X23.25 Y30.16
M3 S480
G1 X23.45 Y30.63 F550
G1 X23.48 Y30.94
G1 X23.42 Y31.40
G1 X23.28 Y31.75
G1 X22.96 Y32.00
G1 X22.58 Y31.74
M3 S520
G1 X22.34 Y31.32 F850
G1 X22.38 Y30.93
G1 X22.19 Y30.50
G1 X22.15 Y30.01
G1 X22.15 Y29.61
G1 X22.12 Y29.17
M3 S540
G1 X22.10 Y28.74 F1000
G4 P30
M5
M5
G0 X24.07 Y30.35
G4 P50
M3 S460
M3 S460
G1 X24.07 Y30.35 F400
G1 X24.15 Y30.86
G1 X24.02 Y31.33
G1 X23.78 Y31.72
G1 X23.46 Y31.71
G1 X23.35 Y31.23
G4 P30
M5
M5
G0 X27.57 Y25.66
G4 P50
M3 S460
M3 S460
G1 X27.57 Y25.66 F400
G1 X27.78 Y26.04
G1 X27.88 Y26.46
G1 X27.91 Y26.90
G1 X27.99 Y27.32
G1 X28.05 Y27.69
M3 S473
G1 X27.92 Y28.13 F503
G1 X28.01 Y28.56
G1 X28.07 Y28.94
G1 X27.83 Y29.11
G1 X27.68 Y28.72
G1 X27.23 Y28.73
M3 S505
G1 X26.90 Y28.97 F742
G1 X26.61 Y29.23
G1 X26.42 Y29.58
G1 X26.33 Y30.03
G1 X26.19 Y30.43
G1 X25.97 Y30.74
M3 S533
G1 X25.99 Y31.12 F952
G1 X25.76 Y31.48
G1 X25.51 Y31.82
G1 X25.09 Y31.78
G1 X24.90 Y31.43
G4 P30
M5
M5
G0 X27.74 Y25.80
G4 P50
M3 S460
M3 S460
G1 X27.74 Y25.80 F400
G1 X27.61 Y26.28
G1 X27.69 Y26.75
G1 X27.66 Y27.26
G1 X27.83 Y27.77
G1 X27.83 Y28.25
M3 S540
G1 X27.87 Y28.72 F1000
G4 P30
M5
M5
G0 X27.77 Y29.29
G4 P50
M3 S460
M3 S460
G1 X27.77 Y29.29 F400
G1 X27.81 Y29.75
G1 X27.84 Y30.22
G1 X27.99 Y30.71
G1 X27.82 Y31.04
G1 X27.57 Y31.54
M3 S505
G1 X27.40 Y31.85 F742
G1 X26.98 Y31.99
G1 X26.68 Y31.68
G1 X26.49 Y31.29
G1 X26.28 Y30.82
G1 X26.21 Y30.37
G4 P30
M5
M5
G0 X28.95 Y30.50
G4 P50
M3 S460
M3 S460
G1 X28.95 Y30.50 F400
G1 X28.95 Y31.02
G1 X28.61 Y31.47
G1 X28.30 Y31.64
G1 X28.11 Y31.17
G1 X27.94 Y30.69
G4 P30
M5
M5
G0 X34.76 Y27.05
G4 P50
M3 S460
M3 S460
G1 X34.76 Y27.05 F400
G1 X34.58 Y27.42
G1 X34.33 Y27.63
G1 X34.05 Y28.03
G1 X33.95 Y28.43
G1 X33.74 Y28.81
M3 S487
G1 X33.76 Y29.19 F607
G1 X33.62 Y29.56
G1 X33.63 Y29.98
G1 X33.48 Y30.48
G1 X33.34 Y30.79
G1 X33.28 Y31.24
M3 S532
G1 X33.17 Y31.63 F942
G1 X32.95 Y31.97
G1 X32.67 Y31.69
G1 X32.47 Y31.29
G4 P30
M5
M5
G0 X34.97 Y27.35
G4 P50
M3 S460
M3 S460
G1 X34.97 Y27.35 F400
G1 X35.08 Y27.59
G1 X35.22 Y27.72
G1 X35.32 Y27.95
G4 P30
M5
M5
G0 X34.94 Y27.98
G4 P50
M3 S460
M3 S460
G1 X34.94 Y27.98 F400
G1 X34.98 Y28.40
G1 X35.09 Y28.84
G1 X35.12 Y29.26
G1 X35.18 Y29.73
G1 X35.17 Y30.12
M3 S480
G1 X35.10 Y30.63 F550
G1 X35.24 Y30.96
G1 X35.21 Y31.40
G1 X34.92 Y31.77
G1 X34.63 Y31.99
G1 X34.32 Y31.76
M3 S520
G1 X34.25 Y31.36 F850
G1 X34.21 Y30.90
G1 X34.17 Y30.44
G1 X34.04 Y30.03
G1 X33.97 Y29.61
G1 X33.99 Y29.16
M3 S540
G1 X33.94 Y28.73 F1000
G4 P30
M5
M5
G0 X35.92 Y30.31
G4 P50
M3 S460
M3 S460
G1 X35.92 Y30.31 F400
G1 X35.91 Y30.81
G1 X35.81 Y31.29
G1 X35.69 Y31.74
G1 X35.26 Y31.61
G1 X35.20 Y31.20
G4 P30
M5
M5
G0 X42.96 Y27.14
G4 P50
M3 S460
M3 S460
G1 X42.96 Y27.14 F400
G1 X43.39 Y27.24
G1 X43.58 Y27.62
G1 X43.62 Y28.04
G1 X43.75 Y28.46
G1 X43.57 Y28.92
M3 S480
G1 X43.63 Y29.29 F550
G1 X43.32 Y29.57
G1 X43.02 Y29.81
G1 X42.61 Y29.87
G1 X42.13 Y29.82
G1 X42.05 Y29.43
M3 S520
G1 X41.69 Y29.05 F850
G1 X41.85 Y28.62
G1 X41.83 Y28.22
G1 X42.03 Y27.86
G1 X42.23 Y27.51
G1 X42.54 Y27.28
M3 S540
G1 X42.94 Y27.15 F1000
G4 P30
M5
M5
G0 X41.56 Y28.98
G4 P50
M3 S460
M3 S460
G1 X41.56 Y28.98 F400
G1 X41.33 Y29.34
G1 X40.97 Y29.69
G1 X40.47 Y29.70
G1 X40.03 Y29.39
G4 P30
M5
M5
G0 X43.54 Y29.45
G4 P50
M3 S460
M3 S460
G1 X43.54 Y29.45 F400
G1 X43.56 Y30.05
G1 X43.72 Y30.59
G1 X44.38 Y30.35
G1 X44.60 Y29.88
G4 P30
M5
M5
G0 X43.60 Y30.70
G4 P50
M3 S460
M3 S460
G1 X43.60 Y30.70 F400
G1 X43.62 Y31.13
G1 X43.36 Y31.45
G1 X43.09 Y31.75
G1 X42.96 Y32.24
G1 X42.87 Y32.54
M3 S487
G1 X42.95 Y32.98 F607
G1 X42.86 Y33.46
G1 X43.16 Y33.78
G1 X43.45 Y33.87
G1 X43.59 Y33.49
G1 X43.65 Y33.07
M3 S532
G1 X43.87 Y32.64 F942
G1 X43.70 Y32.21
G1 X43.71 Y31.80
G1 X43.57 Y31.37
G4 P30
M5
M5
G0 X45.42 Y27.08
G4 P50
M3 S460
M3 S460
G1 X45.42 Y27.08 F400
G1 X45.44 Y27.56
G1 X45.44 Y27.98
G1 X45.43 Y28.42
G1 X45.31 Y28.83
G1 X45.15 Y29.02
M3 S520
G1 X45.11 Y28.56 F850
G1 X45.02 Y28.11
G1 X45.04 Y27.67
G1 X45.00 Y27.23
G4 P30
M5
M5
G0 X45.29 Y28.62
G4 P50
M3 S460
M3 S460
G1 X45.29 Y28.62 F400
G1 X45.26 Y29.12
G1 X45.41 Y29.58
G1 X45.51 Y30.18
G1 X45.43 Y30.58
G1 X45.59 Y31.11
M3 S540
G1 X45.67 Y31.62 F1000
G4 P30
M5
M5
G0 X44.97 Y29.12
G4 P50
M3 S460
M3 S460
G1 X44.97 Y29.12 F400
G1 X45.03 Y29.65
G1 X45.00 Y30.26
G1 X44.89 Y30.72
G1 X44.68 Y31.04
G4 P30
M5
M5
G0 X45.73 Y29.90
G4 P50
M3 S460
M3 S460
G1 X45.73 Y29.90 F400
G1 X45.68 Y30.44
G1 X45.54 Y30.90
G1 X45.60 Y31.41
G4 P30
M5
M5
G0 X44.16 Y31.71
G4 P50
M3 S460
M3 S460
G1 X44.16 Y31.71 F400
G1 X44.21 Y31.76
G1 X44.16 Y31.86
G1 X44.17 Y31.96
G4 P30
M5
M5
G0 X46.68 Y31.82
G4 P50
M3 S460
M3 S460
G1 X46.68 Y31.82 F400
G1 X46.54 Y31.92
G1 X46.56 Y31.92
G1 X46.71 Y32.00
G4 P30
M5
M5
G0 X49.11 Y27.06
G4 P50
M3 S460
M3 S460
G1 X49.11 Y27.06 F400
G1 X49.33 Y27.42
G1 X49.39 Y27.81
G1 X49.28 Y28.29
G1 X49.16 Y28.76
G1 X49.12 Y29.07
M3 S495
G1 X48.89 Y29.50 F663
G1 X48.62 Y29.91
G1 X48.47 Y30.26
G1 X48.42 Y30.56
G1 X48.24 Y31.00
G1 X47.95 Y31.31
M3 S538
G1 X47.71 Y31.65 F991
G1 X47.50 Y31.98
G4 P30
M5
M5
G0 X49.15 Y27.11
G4 P50
M3 S460
M3 S460
G1 X49.15 Y27.11 F400
G1 X48.91 Y27.51
G1 X48.64 Y28.05
G1 X48.82 Y28.50
G1 X48.75 Y28.99
G1 X48.57 Y29.54
M3 S540
G1 X48.64 Y30.05 F1000
G4 P30
M5
M5
G0 X50.27 Y29.80
G4 P50
M3 S460
M3 S460
G1 X50.27 Y29.80 F400
G1 X50.18 Y30.31
G1 X49.80 Y30.72
G1 X49.72 Y31.13
G1 X49.39 Y31.58
G1 X49.08 Y31.55
M3 S536
G1 X48.65 Y31.11 F970
G1 X48.49 Y30.63
G4 P30
M5
M5
G0 X53.46 Y27.17
G4 P50
M3 S460
M3 S460
G1 X53.46 Y27.17 F400
G1 X53.26 Y27.53
G1 X53.00 Y27.78
G1 X52.80 Y28.22
G1 X52.70 Y28.65
G1 X52.55 Y28.99
M3 S491
G1 X52.35 Y29.39 F633
G1 X52.26 Y29.78
G1 X52.20 Y30.21
G1 X52.09 Y30.69
G1 X52.09 Y31.10
G1 X51.90 Y31.51
M3 S536
G1 X51.76 Y31.90 F970
G1 X51.42 Y31.70
G1 X51.23 Y31.28
G4 P30
M5
M5
G0 X53.66 Y27.46
G4 P50
M3 S460
M3 S460
G1 X53.66 Y27.46 F400
G1 X53.81 Y27.69
G1 X53.64 Y27.84
G1 X54.00 Y28.04
G4 P30
M5
M5
G0 X53.63 Y28.07
G4 P50
M3 S460
M3 S460
G1 X53.63 Y28.07 F400
G1 X53.67 Y28.50
G1 X53.75 Y28.94
G1 X53.77 Y29.41
G1 X53.88 Y29.83
G1 X53.95 Y30.28
M3 S482
G1 X53.92 Y30.79 F566
G1 X53.94 Y31.18
G1 X53.79 Y31.55
G1 X53.66 Y31.94
G1 X53.06 Y31.86
G1 X52.93 Y31.43
M3 S524
G1 X52.83 Y31.04 F880
G1 X52.78 Y30.53
G1 X52.77 Y30.12
G1 X52.77 Y29.67
G1 X52.69 Y29.25
G1 X52.66 Y28.80
G4 P30
M5
M5
G0 X54.59 Y30.36
G4 P50
M3 S460
M3 S460
G1 X54.59 Y30.36 F400
G1 X54.51 Y30.95
G1 X54.57 Y31.57
G1 X54.11 Y31.79
G1 X53.88 Y31.22
G4 P30
M5
M5
G0 X57.33 Y25.69
G4 P50
M3 S460
M3 S460
G1 X57.33 Y25.69 F400
G1 X57.20 Y26.19
G1 X57.15 Y26.61
G1 X57.30 Y27.16
G1 X57.10 Y27.53
G1 X56.70 Y27.90
M3 S536
G1 X56.42 Y28.03 F970
G1 X55.91 Y28.09
G4 P30
M5
M5
G0 X58.51 Y27.40
G4 P50
M3 S460
M3 S460
G1 X58.51 Y27.40 F400
G1 X58.30 Y27.68
G1 X57.71 Y27.66
G1 X57.15 Y27.60
G4 P30
M5
M5
G0 X56.83 Y27.87
G4 P50
M3 S460
M3 S460
G1 X56.83 Y27.87 F400
G1 X56.86 Y28.33
G1 X56.82 Y28.84
G1 X56.89 Y29.32
G1 X56.79 Y29.73
G1 X56.53 Y30.07
M3 S512
G1 X56.44 Y30.52 F792
G1 X56.22 Y30.92
G1 X56.07 Y31.36
G1 X55.75 Y31.67
G1 X55.39 Y31.98
G4 P30
M5
M5
G0 X56.82 Y29.97
G4 P50
M3 S460
M3 S460
G1 X56.82 Y29.97 F400
G1 X56.99 Y30.41
G1 X57.17 Y30.89
G1 X57.29 Y31.23
G1 X57.68 Y31.44
G1 X58.00 Y31.19
M3 S528
G1 X58.35 Y30.85 F912
G1 X58.53 Y30.50
G1 X58.74 Y30.10
G4 P30
M5
M5
G0 X64.45 Y25.70
G4 P50
M3 S460
M3 S460
G1 X64.45 Y25.70 F400
G1 X64.64 Y26.08
G1 X64.74 Y26.48
G1 X64.76 Y26.91
G1 X64.83 Y27.30
G1 X64.86 Y27.73
M3 S473
G1 X64.91 Y28.18 F503
G1 X64.97 Y28.56
G1 X64.95 Y29.03
G1 X64.56 Y29.13
G1 X64.39 Y28.75
G1 X64.04 Y28.68
M3 S505
G1 X63.73 Y28.89 F742
G1 X63.53 Y29.21
G1 X63.33 Y29.61
G1 X63.30 Y30.02
G1 X63.08 Y30.36
G1 X63.04 Y30.76
M3 S533
G1 X62.77 Y31.10 F952
G1 X62.66 Y31.45
G1 X62.39 Y31.79
G1 X62.01 Y31.74
G1 X61.80 Y31.41
G4 P30
M5
M5
G0 X64.61 Y25.86
G4 P50
M3 S460
M3 S460
G1 X64.61 Y25.86 F400
G1 X64.59 Y26.33
G1 X64.49 Y26.79
G1 X64.48 Y27.30
G1 X64.75 Y27.75
G1 X64.74 Y28.24
M3 S540
G1 X64.75 Y28.75 F1000
G4 P30
M5
M5
G0 X64.64 Y29.30
G4 P50
M3 S460
M3 S460
G1 X64.64 Y29.30 F400
G1 X64.71 Y29.78
G1 X64.79 Y30.20
G1 X64.71 Y30.67
G1 X64.70 Y31.16
G1 X64.53 Y31.54
M3 S505
G1 X64.27 Y31.87 F742
G1 X63.84 Y31.98
G1 X63.35 Y31.66
G1 X63.27 Y31.30
G1 X63.14 Y30.82
G1 X63.10 Y30.36
G4 P30
M5
M5
G0 X65.82 Y30.52
G4 P50
M3 S460
M3 S460
G1 X65.82 Y30.52 F400
G1 X65.74 Y31.00
G1 X65.41 Y31.37
G1 X65.22 Y31.71
G1 X65.05 Y31.20
G1 X64.81 Y30.71
G4 P30
M5
M5
G0 X68.16 Y27.03
G4 P50
M3 S460
M3 S460
G1 X68.16 Y27.03 F400
G1 X68.01 Y27.39
G1 X67.71 Y27.58
G1 X67.47 Y27.96
G1 X67.36 Y28.41
G1 X67.25 Y28.72
M3 S487
G1 X67.13 Y29.21 F607
G1 X66.94 Y29.51
G1 X66.90 Y29.98
G1 X66.82 Y30.39
G1 X66.76 Y30.80
G1 X66.69 Y31.20
M3 S532
G1 X66.65 Y31.59 F942
G1 X66.31 Y31.94
G1 X66.06 Y31.65
G1 X65.87 Y31.26
G4 P30
M5
M5
G0 X68.37 Y27.33
G4 P50
M3 S460
M3 S460
G1 X68.37 Y27.33 F400
G1 X68.52 Y27.52
G1 X68.61 Y27.74
G1 X68.72 Y27.93
G4 P30
M5
M5
G0 X68.34 Y27.95
G4 P50
M3 S460
M3 S460
G1 X68.34 Y27.95 F400
G1 X68.38 Y28.38
G1 X68.48 Y28.82
G1 X68.62 Y29.23
G1 X68.58 Y29.68
G1 X68.64 Y30.14
M3 S480
G1 X68.60 Y30.49 F550
G1 X68.70 Y30.93
G1 X68.57 Y31.32
G1 X68.31 Y31.73
G1 X68.23 Y32.02
G1 X67.74 Y31.71
M3 S520
G1 X67.76 Y31.31 F850
G1 X67.55 Y30.87
G1 X67.28 Y30.46
G1 X67.42 Y30.00
G1 X67.43 Y29.59
G1 X67.36 Y29.14
M3 S540
G1 X67.34 Y28.71 F1000
G4 P30
M5
M5
G0 X69.32 Y30.35
G4 P50
M3 S460
M3 S460
G1 X69.32 Y30.35 F400
G1 X69.34 Y30.86
G1 X69.15 Y31.29
G1 X69.07 Y31.79
G1 X68.81 Y31.72
G1 X68.60 Y31.23
G4 P30
M5
M5
G0 X72.76 Y27.06
G4 P50
M3 S460
M3 S460
G1 X72.76 Y27.06 F400
G1 X72.77 Y27.50
G1 X72.78 Y27.90
G1 X72.90 Y28.41
G1 X72.90 Y28.83
G1 X72.74 Y29.28
M3 S480
G1 X72.64 Y29.60 F550
G1 X72.30 Y29.93
G1 X72.08 Y30.16
G1 X71.55 Y30.16
G1 X71.32 Y29.68
G1 X71.19 Y29.30
M3 S520
G1 X71.08 Y28.83 F850
G1 X70.99 Y28.47
G1 X70.85 Y28.02
G1 X70.76 Y27.55
G1 X70.41 Y27.38
G1 X70.12 Y27.63
M3 S540
G1 X69.87 Y27.96 F1000
G4 P30
M5
M5
G0 X72.70 Y29.51
G4 P50
M3 S460
M3 S460
G1 X72.70 Y29.51 F400
G1 X72.86 Y30.03
G1 X73.00 Y30.61
G1 X73.15 Y31.15
G1 X73.49 Y30.97
G4 P30
M5
M5
G0 X72.91 Y31.28
G4 P50
M3 S460
M3 S460
G1 X72.91 Y31.28 F400
G1 X72.94 Y31.74
G1 X72.57 Y31.97
G1 X72.49 Y32.38
G1 X72.21 Y32.79
G1 X72.30 Y33.20
M3 S500
G1 X72.32 Y33.69 F700
G1 X72.66 Y33.93
G1 X72.87 Y33.62
G1 X73.13 Y33.16
G1 X72.97 Y32.71
G1 X72.95 Y32.26
M3 S540
G1 X72.92 Y31.82 F1000
G4 P30
M5
G0 X0 Y0
M2