; Generated by AI Handwriting Robot   Stepper Motor Edition
G21
G90
G1 Z3.04 F2540

; Path 0
; Rapid to initial position
G1 X15.02 Y24.92 F2540
G1 Z0.5000
; plunge
G1 Z-2.6750 F127
; cut
G1 X15.02 Y24.92 F400
G1 X15.04 Y25.35
G1 X15.02 Y25.77
G1 X15.01 Y26.19
G1 X15.14 Y26.61
G1 X15.15 Y27.07
G1 X15.24 Y27.46 F477
G1 X15.11 Y27.93
G1 X15.24 Y28.29
G1 X14.87 Y28.52
G1 X14.50 Y28.70
G1 X14.18 Y28.70
G1 X13.71 Y28.74 F670
G1 X13.28 Y28.84
G1 X12.91 Y28.90
G1 X12.40 Y28.95
G1 X12.09 Y29.02
G1 X11.76 Y28.72
G1 X11.74 Y28.37 F882
G1 X11.70 Y27.88
G1 X11.63 Y27.52
G1 X11.74 Y27.05
G1 X11.55 Y26.60
G1 X11.59 Y26.19
G1 X11.51 Y25.75 F1007
G1 X11.49 Y25.34
G1 X11.64 Y24.97
; Retract
G1 Z3.0400 F2540

; Path 1
; Rapid to initial position
G1 X11.54 Y25.50 F2540
G1 Z0.5000
; plunge
G1 Z-2.6750 F127
; cut
G1 X11.54 Y25.50 F400
G1 X11.06 Y25.74
G1 X10.86 Y26.05
G1 X10.44 Y26.44
G1 X10.07 Y26.79
; Retract
G1 Z3.0400 F2540

; Path 2
; Rapid to initial position
G1 X14.86 Y28.60 F2540
G1 Z0.5000
; plunge
G1 Z-2.6750 F127
; cut
G1 X14.86 Y28.60 F400
G1 X14.94 Y29.05
G1 X14.93 Y29.48
G1 X14.98 Y29.91
G1 X14.96 Y30.36
G1 X15.08 Y30.86
G1 X15.21 Y31.31 F670
G1 X15.24 Y31.71
G1 X15.49 Y31.94
G1 X15.91 Y31.57
G1 X16.02 Y31.27
G1 X16.33 Y30.98
G1 X16.65 Y30.66 F1007
G1 X16.78 Y30.28
; Retract
G1 Z3.0400 F2540

; Path 3
; Rapid to initial position
G1 X11.54 Y29.02 F2540
G1 Z0.5000
; plunge
G1 Z-2.6750 F127
; cut
G1 X11.54 Y29.02 F400
G1 X11.57 Y29.53
G1 X11.61 Y29.95
G1 X11.50 Y30.40
G1 X11.64 Y30.88
G1 X11.76 Y31.38
G1 X11.79 Y31.87 F1016
; Retract
G1 Z3.0400 F2540

; Path 4
; Rapid to initial position
G1 X17.07 Y27.12 F2540
G1 Z0.5000
; plunge
G1 Z-2.6750 F127
; cut
G1 X17.07 Y27.12 F400
G1 X17.27 Y27.47
G1 X17.28 Y27.89
G1 X17.14 Y28.31
G1 X17.03 Y28.68
G1 X17.10 Y29.06
G1 X16.83 Y29.48 F670
G1 X16.64 Y29.96
G1 X16.55 Y30.27
G1 X16.42 Y30.61
G1 X16.29 Y30.99
G1 X15.97 Y31.30
G1 X15.73 Y31.65 F1007
G1 X15.48 Y31.97
; Retract
G1 Z3.0400 F2540

; Path 5
; Rapid to initial position
G1 X17.11 Y27.20 F2540
G1 Z0.5000
; plunge
G1 Z-2.6750 F127
; cut
G1 X17.11 Y27.20 F400
G1 X16.80 Y27.63
G1 X16.64 Y28.07
G1 X16.48 Y28.59
G1 X16.61 Y29.07
G1 X16.61 Y29.59
G1 X16.61 Y30.09 F1016
; Retract
G1 Z3.0400 F2540

; Path 6
; Rapid to initial position
G1 X18.21 Y29.82 F2540
G1 Z0.5000
; plunge
G1 Z-2.6750 F127
; cut
G1 X18.21 Y29.82 F400
G1 X18.14 Y30.28
G1 X17.92 Y30.72
G1 X17.70 Y31.10
G1 X17.29 Y31.51
G1 X16.92 Y31.46
G1 X16.61 Y31.09 F985
G1 X16.46 Y30.63
; Retract
G1 Z3.0400 F2540

; Path 7
; Rapid to initial position
G1 X20.18 Y25.63 F2540
G1 Z0.5000
; plunge
G1 Z-2.6750 F127
; cut
G1 X20.18 Y25.63 F400
G1 X20.39 Y26.06
G1 X20.35 Y26.49
G1 X20.36 Y26.93
G1 X20.34 Y27.41
G1 X20.31 Y27.79
G1 X20.39 Y28.22 F612
G1 X20.19 Y28.75
G1 X20.09 Y29.09
G1 X20.06 Y29.53
G1 X20.07 Y29.99
G1 X20.03 Y30.45
G1 X19.86 Y30.81 F957
G1 X19.74 Y31.26
G1 X19.56 Y31.64
G1 X19.32 Y31.97
; Retract
G1 Z3.0400 F2540

; Path 8
; Rapid to initial position
G1 X20.29 Y25.68 F2540
G1 Z0.5000
; plunge
G1 Z-2.6750 F127
; cut
G1 X20.29 Y25.68 F400
G1 X20.06 Y26.14
G1 X19.98 Y26.58
G1 X20.04 Y27.05
G1 X20.11 Y27.59
G1 X20.05 Y28.07
G1 X20.08 Y28.50 F925
G1 X20.09 Y29.01
G1 X20.17 Y29.48
; Retract
G1 Z3.0400 F2540

; Path 9
; Rapid to initial position
G1 X21.14 Y30.44 F2540
G1 Z0.5000
; plunge
G1 Z-2.6750 F127
; cut
G1 X21.14 Y30.44 F400
G1 X20.99 Y30.88
G1 X20.88 Y31.39
G1 X20.43 Y31.76
G1 X20.13 Y31.40
G1 X20.04 Y30.95
G1 X19.92 Y30.45 F1016
; Retract
G1 Z3.0400 F2540

; Path 10
; Rapid to initial position
G1 X22.27 Y25.63 F2540
G1 Z0.5000
; plunge
G1 Z-2.6750 F127
; cut
G1 X22.27 Y25.63 F400
G1 X22.48 Y26.04
G1 X22.45 Y26.47
G1 X22.52 Y26.94
G1 X22.42 Y27.39
G1 X22.35 Y27.88
G1 X22.40 Y28.21 F612
G1 X22.41 Y28.73
G1 X22.24 Y29.11
G1 X22.14 Y29.57
G1 X22.19 Y30.08
G1 X22.13 Y30.44
G1 X22.02 Y30.81 F957
G1 X21.81 Y31.24
G1 X21.65 Y31.65
G1 X21.41 Y31.98
; Retract
G1 Z3.0400 F2540

; Path 11
; Rapid to initial position
G1 X22.39 Y25.67 F2540
G1 Z0.5000
; plunge
G1 Z-2.6750 F127
; cut
G1 X22.39 Y25.67 F400
G1 X22.19 Y26.11
G1 X22.08 Y26.56
G1 X22.02 Y27.04
G1 X22.10 Y27.56
G1 X22.15 Y27.96
G1 X22.16 Y28.53 F925
G1 X22.18 Y29.00
G1 X22.26 Y29.49
; Retract
G1 Z3.0400 F2540

; Path 12
; Rapid to initial position
G1 X23.24 Y30.44 F2540
G1 Z0.5000
; plunge
G1 Z-2.6750 F127
; cut
G1 X23.24 Y30.44 F400
G1 X23.08 Y30.89
G1 X22.92 Y31.30
G1 X22.66 Y31.77
G1 X22.33 Y31.42
G1 X22.13 Y30.94
G1 X22.01 Y30.45 F1016
; Retract
G1 Z3.0400 F2540

; Path 13
; Rapid to initial position
G1 X24.27 Y27.13 F2540
G1 Z0.5000
; plunge
G1 Z-2.6750 F127
; cut
G1 X24.27 Y27.13 F400
G1 X24.71 Y27.26
G1 X25.04 Y27.55
G1 X25.36 Y27.93
G1 X25.50 Y28.36
G1 X25.40 Y28.71
G1 X24.96 Y28.95 F639
G1 X24.45 Y29.23
G1 X24.16 Y29.25
G1 X23.97 Y28.92
G1 X23.80 Y28.49
G1 X23.75 Y28.05
G1 X23.71 Y27.62 F985
G1 X23.93 Y27.29
G1 X24.22 Y27.53
; Retract
G1 Z3.0400 F2540

; Path 14
; Rapid to initial position
G1 X26.19 Y27.28 F2540
G1 Z0.5000
; plunge
G1 Z-2.6750 F127
; cut
G1 X26.19 Y27.28 F400
G1 X26.23 Y27.67
G1 X25.75 Y27.98
G1 X25.55 Y28.26
; Retract
G1 Z3.0400 F2540

; Path 15
; Rapid to initial position
G1 X23.42 Y27.70 F2540
G1 Z0.5000
; plunge
G1 Z-2.6750 F127
; cut
G1 X23.42 Y27.70 F400
G1 X23.13 Y27.97
G1 X23.06 Y28.39
G1 X23.14 Y28.78
G1 X23.09 Y29.26
G1 X23.09 Y29.66
G1 X23.16 Y30.11 F515
G1 X23.15 Y30.51
G1 X23.39 Y30.84
G1 X23.79 Y31.27
G1 X23.79 Y31.67
G1 X24.06 Y31.90
G1 X24.42 Y31.93 F776
G1 X24.99 Y31.77
G1 X25.20 Y31.45
G1 X25.32 Y31.12
G1 X25.44 Y30.64
G1 X25.47 Y30.30
G1 X25.49 Y29.89 F985
G1 X25.46 Y29.45
G1 X25.46 Y29.05
G1 X25.34 Y28.63
; Retract
G1 Z3.0400 F2540

; Path 16
; Rapid to initial position
G1 X37.46 Y24.97 F2540
G1 Z0.5000
; plunge
G1 Z-2.6750 F127
; cut
G1 X37.46 Y24.97 F400
G1 X37.22 Y25.31
G1 X36.93 Y25.61
G1 X36.57 Y25.94
G1 X36.39 Y26.31
G1 X36.23 Y26.44
G1 X35.79 Y26.31 F751
G1 X35.28 Y25.84
G1 X35.49 Y25.51
G1 X35.98 Y25.24
G1 X36.32 Y25.49
G1 X36.47 Y25.91
; Retract
G1 Z3.0400 F2540

; Path 17
; Rapid to initial position
G1 X31.43 Y25.40 F2540
G1 Z0.5000
; plunge
G1 Z-2.6750 F127
; cut
G1 X31.43 Y25.40 F400
G1 X31.24 Y25.65
G1 X31.11 Y25.95
G1 X30.83 Y26.25
; Retract
G1 Z3.0400 F2540

; Path 18
; Rapid to initial position
G1 X31.19 Y25.70 F2540
G1 Z0.5000
; plunge
G1 Z-2.6750 F127
; cut
G1 X31.19 Y25.70 F400
G1 X31.31 Y26.13
G1 X31.36 Y26.56
G1 X31.46 Y27.07
G1 X31.53 Y27.45
G1 X31.59 Y27.90
G1 X31.63 Y28.37 F670
G1 X31.67 Y28.80
G1 X31.78 Y29.23
G1 X31.99 Y29.67
G1 X32.03 Y30.06
G1 X32.07 Y30.57
G1 X32.21 Y31.00 F1007
G1 X32.09 Y31.36
; Retract
G1 Z3.0400 F2540

; Path 19
; Rapid to initial position
G1 X36.37 Y26.30 F2540
G1 Z0.5000
; plunge
G1 Z-2.6750 F127
; cut
G1 X36.37 Y26.30 F400
G1 X36.45 Y26.83
G1 X36.37 Y27.25
G1 X36.28 Y27.77
G1 X36.33 Y28.27
G1 X36.12 Y28.59
; Retract
G1 Z3.0400 F2540

; Path 20
; Rapid to initial position
G1 X33.81 Y27.62 F2540
G1 Z0.5000
; plunge
G1 Z-2.6750 F127
; cut
G1 X33.81 Y27.62 F400
G1 X33.81 Y28.06
G1 X33.77 Y28.49
G1 X33.61 Y28.82
G1 X33.49 Y29.22
G1 X33.14 Y29.70
G1 X33.19 Y30.08 F708
G1 X33.05 Y30.55
G1 X32.92 Y30.95
G1 X32.82 Y31.33
G1 X32.69 Y31.74
G1 X32.31 Y31.73
G1 X32.16 Y31.30 F1016
; Retract
G1 Z3.0400 F2540

; Path 21
; Rapid to initial position
G1 X33.84 Y28.70 F2540
G1 Z0.5000
; plunge
G1 Z-2.6750 F127
; cut
G1 X33.84 Y28.70 F400
G1 X33.94 Y29.30
G1 X34.20 Y29.89
G1 X34.53 Y30.24
; Retract
G1 Z3.0400 F2540

; Path 22
; Rapid to initial position
G1 X35.96 Y28.73 F2540
G1 Z0.5000
; plunge
G1 Z-2.6750 F127
; cut
G1 X35.96 Y28.73 F400
G1 X35.88 Y29.18
G1 X35.82 Y29.61
G1 X35.86 Y30.06
G1 X35.79 Y30.50
G1 X35.71 Y30.99
G1 X35.40 Y31.34 F925
G1 X35.24 Y31.72
G1 X34.95 Y32.00
; Retract
G1 Z3.0400 F2540

; Path 23
; Rapid to initial position
G1 X34.22 Y30.28 F2540
G1 Z0.5000
; plunge
G1 Z-2.6750 F127
; cut
G1 X34.22 Y30.28 F400
G1 X34.35 Y30.82
G1 X34.59 Y31.29
G1 X34.85 Y31.82
; Retract
G1 Z3.0400 F2540

; Path 24
; Rapid to initial position
G1 X38.18 Y27.11 F2540
G1 Z0.5000
; plunge
G1 Z-2.6750 F127
; cut
G1 X38.18 Y27.11 F400
G1 X38.60 Y27.22
G1 X39.02 Y27.51
G1 X39.15 Y27.90
G1 X39.38 Y28.36
G1 X39.23 Y28.72
G1 X38.86 Y28.97 F639
G1 X38.39 Y29.25
G1 X38.24 Y29.28
G1 X37.84 Y28.93
G1 X37.75 Y28.46
G1 X37.65 Y28.01
G1 X37.60 Y27.59 F985
G1 X37.88 Y27.26
G1 X38.12 Y27.50
; Retract
G1 Z3.0400 F2540

; Path 25
; Rapid to initial position
G1 X40.11 Y27.28 F2540
G1 Z0.5000
; plunge
G1 Z-2.6750 F127
; cut
G1 X40.11 Y27.28 F400
G1 X40.07 Y27.75
G1 X39.73 Y27.93
G1 X39.47 Y28.27
; Retract
G1 Z3.0400 F2540

; Path 26
; Rapid to initial position
G1 X37.32 Y27.67 F2540
G1 Z0.5000
; plunge
G1 Z-2.6750 F127
; cut
G1 X37.32 Y27.67 F400
G1 X37.02 Y27.95
G1 X36.97 Y28.36
G1 X37.00 Y28.77
G1 X37.01 Y29.20
G1 X37.06 Y29.61
G1 X37.06 Y30.00 F515
G1 X37.17 Y30.47
G1 X37.39 Y30.91
G1 X37.51 Y31.25
G1 X37.83 Y31.61
G1 X38.05 Y31.90
G1 X38.47 Y31.92 F776
G1 X38.95 Y31.71
G1 X39.08 Y31.46
G1 X39.23 Y31.11
G1 X39.32 Y30.66
G1 X39.41 Y30.27
G1 X39.43 Y29.89 F985
G1 X39.43 Y29.42
G1 X39.36 Y29.03
G1 X39.25 Y28.60
; Retract
G1 Z3.0400 F2540

; Path 27
; Rapid to initial position
G1 X42.48 Y27.12 F2540
G1 Z0.5000
; plunge
G1 Z-2.6750 F127
; cut
G1 X42.48 Y27.12 F400
G1 X42.46 Y27.64
G1 X42.48 Y28.12
G1 X42.61 Y28.68
G1 X42.39 Y29.07
G1 X42.17 Y28.75
G1 X42.07 Y28.30 F925
G1 X42.09 Y27.79
G1 X42.06 Y27.27
; Retract
G1 Z3.0400 F2540

; Path 28
; Rapid to initial position
G1 X42.35 Y28.62 F2540
G1 Z0.5000
; plunge
G1 Z-2.6750 F127
; cut
G1 X42.35 Y28.62 F400
G1 X42.39 Y29.08
G1 X42.46 Y29.65
G1 X42.42 Y30.11
G1 X42.57 Y30.59
G1 X42.63 Y31.12
G1 X42.73 Y31.59 F1016
; Retract
G1 Z3.0400 F2540

; Path 29
; Rapid to initial position
G1 X42.03 Y29.13 F2540
G1 Z0.5000
; plunge
G1 Z-2.6750 F127
; cut
G1 X42.03 Y29.13 F400
G1 X41.96 Y29.73
G1 X42.11 Y30.18
G1 X41.97 Y30.76
G1 X41.74 Y31.04
; Retract
G1 Z3.0400 F2540

; Path 30
; Rapid to initial position
G1 X42.79 Y29.91 F2540
G1 Z0.5000
; plunge
G1 Z-2.6750 F127
; cut
G1 X42.79 Y29.91 F400
G1 X42.71 Y30.35
G1 X42.75 Y30.89
G1 X42.66 Y31.40
; Retract
G1 Z3.0400 F2540

; Path 31
; Rapid to initial position
G1 X41.23 Y31.68 F2540
G1 Z0.5000
; plunge
G1 Z-2.6750 F127
; cut
G1 X41.23 Y31.68 F400
G1 X41.26 Y31.75
G1 X41.24 Y31.89
G1 X41.24 Y31.92
; Retract
G1 Z3.0400 F2540

; Path 32
; Rapid to initial position
G1 X43.73 Y31.82 F2540
G1 Z0.5000
; plunge
G1 Z-2.6750 F127
; cut
G1 X43.73 Y31.82 F400
G1 X43.72 Y31.95
G1 X43.79 Y31.93
G1 X43.76 Y31.99
; Retract
G1 Z3.0400 F2540

; Path 33
; Rapid to initial position
G1 X45.48 Y25.70 F2540
G1 Z0.5000
; plunge
G1 Z-2.6750 F127
; cut
G1 X45.48 Y25.70 F400
G1 X45.66 Y26.12
G1 X45.69 Y26.55
G1 X45.70 Y26.97
G1 X45.66 Y27.51
G1 X45.68 Y27.87
G1 X45.65 Y28.29 F612
G1 X45.62 Y28.76
G1 X45.40 Y29.14
G1 X45.28 Y29.66
G1 X45.41 Y30.05
G1 X45.30 Y30.48
G1 X45.13 Y30.89 F957
G1 X45.04 Y31.27
G1 X44.86 Y31.65
G1 X44.63 Y32.01
; Retract
G1 Z3.0400 F2540

; Path 34
; Rapid to initial position
G1 X45.59 Y25.71 F2540
G1 Z0.5000
; plunge
G1 Z-2.6750 F127
; cut
G1 X45.59 Y25.71 F400
G1 X45.41 Y26.12
G1 X45.24 Y26.60
G1 X45.40 Y27.10
G1 X45.28 Y27.55
G1 X45.23 Y28.05
G1 X45.30 Y28.53 F925
G1 X45.36 Y29.04
G1 X45.47 Y29.51
; Retract
G1 Z3.0400 F2540

; Path 35
; Rapid to initial position
G1 X46.44 Y30.42 F2540
G1 Z0.5000
; plunge
G1 Z-2.6750 F127
; cut
G1 X46.44 Y30.42 F400
G1 X46.31 Y30.88
G1 X46.08 Y31.31
G1 X45.87 Y31.67
G1 X45.49 Y31.40
G1 X45.37 Y30.92
G1 X45.22 Y30.44 F1016
; Retract
G1 Z3.0400 F2540

; Path 36
; Rapid to initial position
G1 X49.34 Y25.68 F2540
G1 Z0.5000
; plunge
G1 Z-2.6750 F127
; cut
G1 X49.34 Y25.68 F400
G1 X49.54 Y26.06
G1 X49.60 Y26.48
G1 X49.65 Y26.92
G1 X49.77 Y27.32
G1 X49.74 Y27.74
G1 X49.77 Y28.19 F506
G1 X49.86 Y28.56
G1 X49.76 Y29.06
G1 X49.51 Y29.07
G1 X49.41 Y28.71
G1 X48.92 Y28.70
G1 X48.50 Y28.96 F751
G1 X48.39 Y29.25
G1 X48.30 Y29.62
G1 X48.09 Y30.02
G1 X47.94 Y30.47
G1 X47.80 Y30.75
G1 X47.72 Y31.12 F967
G1 X47.44 Y31.49
G1 X47.29 Y31.80
G1 X46.86 Y31.79
G1 X46.67 Y31.44
; Retract
G1 Z3.0400 F2540

; Path 37
; Rapid to initial position
G1 X49.50 Y25.81 F2540
G1 Z0.5000
; plunge
G1 Z-2.6750 F127
; cut
G1 X49.50 Y25.81 F400
G1 X49.46 Y26.28
G1 X49.45 Y26.82
G1 X49.50 Y27.27
G1 X49.65 Y27.73
G1 X49.62 Y28.21
G1 X49.64 Y28.73 F1016
; Retract
G1 Z3.0400 F2540

; Path 38
; Rapid to initial position
G1 X49.54 Y29.26 F2540
G1 Z0.5000
; plunge
G1 Z-2.6750 F127
; cut
G1 X49.54 Y29.26 F400
G1 X49.56 Y29.71
G1 X49.60 Y30.23
G1 X49.67 Y30.65
G1 X49.57 Y31.05
G1 X49.34 Y31.43
G1 X49.23 Y31.83 F751
G1 X48.64 Y32.00
G1 X48.29 Y31.71
G1 X48.16 Y31.25
G1 X48.07 Y30.80
G1 X47.98 Y30.34
; Retract
G1 Z3.0400 F2540

; Path 39
; Rapid to initial position
G1 X50.72 Y30.49 F2540
G1 Z0.5000
; plunge
G1 Z-2.6750 F127
; cut
G1 X50.72 Y30.49 F400
G1 X50.65 Y30.95
G1 X50.52 Y31.50
G1 X49.99 Y31.66
G1 X49.86 Y31.20
G1 X49.70 Y30.69
; Retract
G1 Z3.0400 F2540

; Return to 0,0
G0 X0 Y0 F2540
M2