; Generated by AI Handwriting Robot
G21
G90
G1 F800
M5
G0 X14.95 Y25.02
G4 P50
M3 S460
M3 S460
G1 X14.95 Y25.02 F400
G1 X14.95 Y25.44
G1 X14.99 Y25.85
G1 X14.95 Y26.29
G1 X15.05 Y26.69
G1 X15.04 Y27.09
M3 S470
G1 X15.11 Y27.56 F475
G1 X15.13 Y27.97
G1 X15.07 Y28.41
G1 X14.90 Y28.65
G1 X14.36 Y28.70
G1 X14.03 Y28.75
M3 S495
G1 X13.70 Y28.80 F663
G1 X13.26 Y28.86
G1 X12.86 Y28.93
G1 X12.54 Y29.04
G1 X12.06 Y29.08
G1 X11.75 Y28.77
M3 S522
G1 X11.75 Y28.32 F870
G1 X11.70 Y27.97
G1 X11.61 Y27.54
G1 X11.64 Y27.11
G1 X11.56 Y26.71
G1 X11.50 Y26.25
M3 S538
G1 X11.48 Y25.85 F991
G1 X11.46 Y25.43
G1 X11.62 Y25.07
G4 P30
M5
M5
G0 X11.52 Y25.61
G4 P50
M3 S460
M3 S460
G1 X11.52 Y25.61 F400
G1 X11.08 Y25.88
G1 X10.81 Y26.21
G1 X10.32 Y26.55
G1 X10.07 Y26.89
G4 P30
M5
M5
G0 X14.79 Y28.65
G4 P50
M3 S460
M3 S460
G1 X14.79 Y28.65 F400
G1 X14.85 Y29.10
G1 X14.93 Y29.52
G1 X14.97 Y29.96
G1 X14.95 Y30.47
G1 X14.99 Y30.81
M3 S495
G1 X15.08 Y31.28 F663
G1 X15.21 Y31.72
G1 X15.42 Y31.96
G1 X15.78 Y31.65
G1 X15.94 Y31.29
G1 X16.22 Y30.96
M3 S538
G1 X16.51 Y30.67 F991
G1 X16.69 Y30.30
G4 P30
M5
M5
G0 X11.51 Y29.10
G4 P50
M3 S460
M3 S460
G1 X11.51 Y29.10 F400
G1 X11.55 Y29.56
G1 X11.59 Y29.92
G1 X11.65 Y30.47
G1 X11.65 Y30.95
G1 X11.74 Y31.46
M3 S540
G1 X11.77 Y31.91 F1000
G4 P30
M5
M5
G0 X16.41 Y27.06
G4 P50
M3 S460
M3 S460
G1 X16.41 Y27.06 F400
G1 X16.35 Y27.14
G1 X16.33 Y27.35
G1 X16.25 Y27.45
G4 P30
M5
M5
G0 X16.01 Y28.41
G4 P50
M3 S460
M3 S460
G1 X16.01 Y28.41 F400
G1 X15.98 Y28.86
G1 X15.96 Y29.39
G1 X16.04 Y29.86
G1 X16.01 Y30.33
G1 X15.89 Y30.72
M3 S528
G1 X15.81 Y31.21 F912
G1 X15.64 Y31.68
G1 X15.37 Y32.00
G4 P30
M5
M5
G0 X16.80 Y30.08
G4 P50
M3 S460
M3 S460
G1 X16.80 Y30.08 F400
G1 X16.77 Y30.60
G1 X16.70 Y31.11
G1 X16.62 Y31.52
G1 X16.19 Y31.69
G1 X16.12 Y31.18
M3 S540
G1 X15.94 Y30.64 F1000
G4 P30
M5
M5
G0 X23.56 Y24.96
G4 P50
M3 S460
M3 S460
G1 X23.56 Y24.96 F400
G1 X23.58 Y25.40
G1 X23.56 Y25.81
G1 X23.64 Y26.24
G1 X23.75 Y26.68
G1 X23.68 Y27.10
M3 S475
G1 X23.82 Y27.56 F512
G1 X23.80 Y27.96
G1 X23.73 Y28.35
G1 X23.85 Y28.86
G1 X24.04 Y29.30
G1 X24.15 Y29.73
M3 S508
G1 X24.00 Y30.12 F766
G1 X24.14 Y30.55
G1 X24.15 Y31.00
G1 X23.96 Y31.46
G1 X23.82 Y31.81
G1 X23.43 Y31.98
M3 S536
G1 X23.10 Y31.80 F970
G1 X22.85 Y31.47
G1 X22.78 Y31.03
G1 X22.82 Y30.60
G4 P30
M5
M5
G0 X22.01 Y25.17
G4 P50
M3 S460
M3 S460
G1 X22.01 Y25.17 F400
G1 X22.69 Y25.29
G1 X23.32 Y25.44
G1 X23.92 Y25.41
G4 P30
M5
M5
G0 X21.78 Y25.20
G4 P50
M3 S460
M3 S460
G1 X21.78 Y25.20 F400
G1 X21.94 Y25.17
G1 X21.87 Y25.17
G1 X22.01 Y25.20
G4 P30
M5
M5
G0 X21.65 Y25.24
G4 P50
M3 S460
M3 S460
G1 X21.65 Y25.24 F400
G1 X21.29 Y25.52
G1 X20.85 Y25.87
G1 X20.84 Y26.31
G1 X20.87 Y26.84
G1 X21.32 Y26.81
G4 P30
M5
M5
G0 X29.55 Y27.14
G4 P50
M3 S460
M3 S460
G1 X29.55 Y27.14 F400
G1 X29.38 Y27.49
G1 X28.98 Y27.74
G1 X28.84 Y28.16
G1 X28.83 Y28.56
G1 X28.56 Y28.98
M3 S491
G1 X28.35 Y29.45 F633
G1 X28.43 Y29.85
G1 X28.40 Y30.22
G1 X28.25 Y30.77
G1 X28.00 Y31.14
G1 X27.96 Y31.61
M3 S536
G1 X27.80 Y31.90 F970
G1 X27.49 Y31.73
G1 X27.30 Y31.30
G4 P30
M5
M5
G0 X29.76 Y27.44
G4 P50
M3 S460
M3 S460
G1 X29.76 Y27.44 F400
G1 X29.87 Y27.66
G1 X29.97 Y27.91
G1 X30.10 Y28.02
G4 P30
M5
M5
G0 X29.73 Y28.04
G4 P50
M3 S460
M3 S460
G1 X29.73 Y28.04 F400
G1 X29.79 Y28.46
G1 X29.86 Y28.88
G1 X29.86 Y29.32
G1 X29.95 Y29.70
G1 X29.99 Y30.19
M3 S480
G1 X30.01 Y30.51 F550
G1 X29.91 Y30.98
G1 X29.92 Y31.42
G1 X29.86 Y31.76
G1 X29.49 Y31.97
G1 X29.23 Y31.67
M3 S520
G1 X28.94 Y31.34 F850
G1 X29.04 Y30.85
G1 X28.79 Y30.46
G1 X28.79 Y30.03
G1 X28.80 Y29.63
G1 X28.79 Y29.22
M3 S540
G1 X28.74 Y28.78 F1000
G4 P30
M5
M5
G0 X30.69 Y30.38
G4 P50
M3 S460
M3 S460
G1 X30.69 Y30.38 F400
G1 X30.72 Y30.85
G1 X30.52 Y31.30
G1 X30.35 Y31.81
G1 X30.11 Y31.71
G1 X29.98 Y31.25
G4 P30
M5
M5
G0 X33.53 Y27.16
G4 P50
M3 S460
M3 S460
G1 X33.53 Y27.16 F400
G1 X33.68 Y27.55
G1 X33.72 Y27.96
G1 X33.72 Y28.38
G1 X33.74 Y28.82
G1 X33.92 Y29.21
M3 S467
G1 X33.88 Y29.65 F453
G1 X34.19 Y30.02
G1 X34.37 Y29.75
G1 X34.41 Y29.42
G1 X34.51 Y28.95
G1 X34.51 Y28.56
M3 S486
G1 X34.64 Y28.15 F595
G1 X34.86 Y27.75
G1 X35.16 Y27.47
G1 X35.17 Y27.47
G1 X35.18 Y27.93
G1 X35.40 Y28.34
M3 S510
G1 X35.52 Y28.73 F775
G1 X35.45 Y29.13
G1 X35.67 Y29.66
G1 X35.51 Y30.01
G1 X35.41 Y30.41
G1 X35.66 Y30.82
M3 S530
G1 X35.67 Y31.29 F927
G1 X35.71 Y31.68
G1 X36.06 Y31.88
G1 X36.08 Y31.51
G1 X36.19 Y31.12
G1 X36.28 Y30.70
M3 S539
G1 X36.34 Y30.29 F998
G1 X36.38 Y29.88
G4 P30
M5
M5
G0 X31.68 Y27.20
G4 P50
M3 S460
M3 S460
G1 X31.68 Y27.20 F400
G1 X31.93 Y27.62
G1 X31.96 Y28.07
G1 X32.01 Y28.58
G1 X32.09 Y28.97
G1 X32.04 Y29.44
M3 S512
G1 X32.02 Y29.90 F792
G1 X32.21 Y30.37
G1 X32.42 Y30.78
G1 X32.45 Y31.26
G1 X32.44 Y31.72
G4 P30
M5
M5
G0 X33.48 Y27.23
G4 P50
M3 S460
M3 S460
G1 X33.48 Y27.23 F400
G1 X33.23 Y27.63
G1 X33.12 Y28.12
G1 X32.98 Y28.54
G1 X32.82 Y29.04
G1 X32.74 Y29.63
M3 S536
G1 X32.73 Y30.04 F970
G1 X32.49 Y30.49
G4 P30
M5
M5
G0 X31.76 Y27.27
G4 P50
M3 S460
M3 S460
G1 X31.76 Y27.27 F400
G1 X31.46 Y27.64
G1 X31.48 Y27.95
G1 X31.37 Y28.36
G4 P30
M5
M5
G0 X34.04 Y30.13
G4 P50
M3 S460
M3 S460
G1 X34.04 Y30.13 F400
G1 X34.02 Y30.64
G1 X34.14 Y31.09
G1 X34.11 Y31.65
G4 P30
M5
M5
G0 X45.75 Y25.08
G4 P50
M3 S460
M3 S460
G1 X45.75 Y25.08 F400
G1 X45.78 Y25.50
G1 X45.79 Y25.91
G1 X45.83 Y26.33
G1 X45.82 Y26.78
G1 X45.83 Y27.15
M3 S470
G1 X45.92 Y27.58 F475
G1 X45.74 Y27.99
G1 X45.89 Y28.44
G1 X45.64 Y28.70
G1 X45.40 Y28.77
G1 X45.01 Y28.81
M3 S495
G1 X44.38 Y28.86 F663
G1 X44.05 Y28.93
G1 X43.65 Y28.92
G1 X43.33 Y29.10
G1 X42.85 Y29.06
G1 X42.58 Y28.89
M3 S522
G1 X42.47 Y28.39 F870
G1 X42.53 Y28.00
G1 X42.49 Y27.61
G1 X42.36 Y27.14
G1 X42.43 Y26.73
G1 X42.32 Y26.29
M3 S538
G1 X42.35 Y25.91 F991
G1 X42.30 Y25.50
G1 X42.46 Y25.13
G4 P30
M5
M5
G0 X42.35 Y25.63
G4 P50
M3 S460
M3 S460
G1 X42.35 Y25.63 F400
G1 X42.00 Y25.86
G1 X41.69 Y26.22
G1 X41.27 Y26.56
G1 X40.92 Y26.89
G4 P30
M5
M5
G0 X45.60 Y28.68
G4 P50
M3 S460
M3 S460
G1 X45.60 Y28.68 F400
G1 X45.68 Y29.10
G1 X45.69 Y29.54
G1 X45.73 Y29.98
G1 X45.75 Y30.42
G1 X45.74 Y30.91
M3 S495
G1 X46.02 Y31.28 F663
G1 X45.93 Y31.74
G1 X46.25 Y31.92
G1 X46.50 Y31.66
G1 X46.73 Y31.29
G1 X47.04 Y30.95
M3 S538
G1 X47.31 Y30.70 F991
G1 X47.47 Y30.32
G4 P30
M5
M5
G0 X42.35 Y29.15
G4 P50
M3 S460
M3 S460
G1 X42.35 Y29.15 F400
G1 X42.44 Y29.69
G1 X42.33 Y30.26
G1 X42.36 Y30.85
G1 X42.46 Y31.41
G1 X42.60 Y31.93
G4 P30
M5
M5
G0 X47.84 Y27.12
G4 P50
M3 S460
M3 S460
G1 X47.84 Y27.12 F400
G1 X48.06 Y27.46
G1 X48.01 Y27.89
G1 X48.01 Y28.30
G1 X47.94 Y28.76
G1 X47.73 Y29.12
M3 S495
G1 X47.70 Y29.52 F663
G1 X47.46 Y29.93
G1 X47.31 Y30.29
G1 X47.23 Y30.69
G1 X46.91 Y31.02
G1 X46.74 Y31.38
M3 S538
G1 X46.48 Y31.70 F991
G1 X46.24 Y32.02
G4 P30
M5
M5
G0 X47.89 Y27.16
G4 P50
M3 S460
M3 S460
G1 X47.89 Y27.16 F400
G1 X47.61 Y27.57
G1 X47.39 Y27.98
G1 X47.55 Y28.56
G1 X47.38 Y29.00
G1 X47.37 Y29.56
M3 S540
G1 X47.38 Y30.08 F1000
G4 P30
M5
M5
G0 X49.00 Y29.83
G4 P50
M3 S460
M3 S460
G1 X49.00 Y29.83 F400
G1 X48.91 Y30.30
G1 X48.75 Y30.73
G1 X48.58 Y31.14
G1 X48.24 Y31.52
G1 X47.64 Y31.55
M3 S536
G1 X47.43 Y31.12 F970
G1 X47.22 Y30.65
G4 P30
M5
M5
G0 X52.73 Y27.11
G4 P50
M3 S460
M3 S460
G1 X52.73 Y27.11 F400
G1 X53.13 Y27.22
G1 X53.38 Y27.59
G1 X53.50 Y28.00
G1 X53.45 Y28.41
G1 X53.44 Y28.91
M3 S480
G1 X53.38 Y29.30 F550
G1 X53.24 Y29.55
G1 X53.00 Y29.76
G1 X52.39 Y29.87
G1 X51.95 Y29.79
G1 X51.69 Y29.43
M3 S520
G1 X51.53 Y29.01 F850
G1 X51.54 Y28.61
G1 X51.53 Y28.17
G1 X51.76 Y27.82
G1 X51.96 Y27.49
G1 X52.32 Y27.26
M3 S540
G1 X52.71 Y27.12 F1000
G4 P30
M5
M5
G0 X51.33 Y28.98
G4 P50
M3 S460
M3 S460
G1 X51.33 Y28.98 F400
G1 X50.93 Y29.34
G1 X50.72 Y29.72
G1 X50.23 Y29.67
G1 X49.79 Y29.38
G4 P30
M5
M5
G0 X53.31 Y29.42
G4 P50
M3 S460
M3 S460
G1 X53.31 Y29.42 F400
G1 X53.42 Y30.03
G1 X53.59 Y30.58
G1 X54.11 Y30.28
G1 X54.38 Y29.86
G4 P30
M5
M5
G0 X53.37 Y30.67
G4 P50
M3 S460
M3 S460
G1 X53.37 Y30.67 F400
G1 X53.39 Y31.09
G1 X53.17 Y31.42
G1 X52.86 Y31.74
G1 X52.89 Y32.16
G1 X52.59 Y32.48
M3 S487
G1 X52.70 Y32.98 F607
G1 X52.63 Y33.36
G1 X52.93 Y33.82
G1 X53.28 Y33.89
G1 X53.58 Y33.54
G1 X53.50 Y33.05
M3 S532
G1 X53.52 Y32.66 F942
G1 X53.53 Y32.18
G1 X53.45 Y31.76
G1 X53.35 Y31.33
G4 P30
M5
M5
G0 X56.37 Y27.10
G4 P50
M3 S460
M3 S460
G1 X56.37 Y27.10 F400
G1 X56.16 Y27.45
G1 X55.90 Y27.70
G1 X55.71 Y28.10
G1 X55.57 Y28.56
G1 X55.46 Y29.00
M3 S491
G1 X55.44 Y29.38 F633
G1 X55.35 Y29.80
G1 X55.07 Y30.27
G1 X55.07 Y30.66
G1 X54.96 Y31.09
G1 X54.76 Y31.55
M3 S536
G1 X54.69 Y31.90 F970
G1 X54.28 Y31.69
G1 X54.11 Y31.27
G4 P30
M5
M5
G0 X56.57 Y27.41
G4 P50
M3 S460
M3 S460
G1 X56.57 Y27.41 F400
G1 X56.72 Y27.60
G1 X56.79 Y27.90
G1 X56.92 Y28.00
G4 P30
M5
M5
G0 X56.55 Y27.99
G4 P50
M3 S460
M3 S460
G1 X56.55 Y27.99 F400
G1 X56.58 Y28.41
G1 X56.61 Y28.84
G1 X56.68 Y29.28
G1 X56.71 Y29.68
G1 X56.84 Y30.06
M3 S480
G1 X56.89 Y30.53 F550
G1 X56.91 Y30.96
G1 X56.75 Y31.39
G1 X56.66 Y31.80
G1 X56.25 Y31.91
G1 X56.00 Y31.61
M3 S520
G1 X55.82 Y31.31 F850
G1 X55.86 Y30.87
G1 X55.62 Y30.41
G1 X55.65 Y29.98
G1 X55.58 Y29.58
G1 X55.59 Y29.16
M3 S540
G1 X55.56 Y28.74 F1000
G4 P30
M5
M5
G0 X57.51 Y30.39
G4 P50
M3 S460
M3 S460
G1 X57.51 Y30.39 F400
G1 X57.54 Y30.91
G1 X57.38 Y31.35
G1 X57.39 Y31.73
G1 X56.89 Y31.72
G1 X56.80 Y31.26
G4 P30
M5
M5
G0 X60.01 Y27.12
G4 P50
M3 S460
M3 S460
G1 X60.01 Y27.12 F400
G1 X59.83 Y27.55
G1 X59.67 Y27.96
G1 X59.51 Y28.36
G1 X59.43 Y28.83
G1 X59.34 Y29.32
M3 S505
G1 X59.28 Y29.73 F742
G1 X59.30 Y30.21
G1 X59.16 Y30.61
G1 X59.13 Y31.10
G1 X59.14 Y31.55
G1 X59.14 Y32.02
G4 P30
M5
M5
G0 X59.99 Y27.39
G4 P50
M3 S460
M3 S460
G1 X59.99 Y27.39 F400
G1 X60.12 Y27.82
G1 X60.15 Y28.29
G1 X60.21 Y28.69
G1 X60.22 Y29.17
G1 X60.25 Y29.61
M3 S487
G1 X60.41 Y30.11 F607
G1 X60.47 Y30.58
G1 X60.60 Y31.00
G1 X60.74 Y31.33
G1 X60.91 Y31.26
G1 X60.94 Y30.82
M3 S532
G1 X61.16 Y30.35 F942
G1 X61.27 Y29.96
G1 X61.36 Y29.53
G1 X61.45 Y29.11
G4 P30
M5
M5
G0 X58.46 Y27.40
G4 P50
M3 S460
M3 S460
G1 X58.46 Y27.40 F400
G1 X58.63 Y27.81
G1 X58.71 Y28.35
G1 X58.86 Y28.83
G1 X58.90 Y29.46
G1 X58.99 Y29.95
M3 S540
G1 X59.11 Y30.47 F1000
G4 P30
M5
M5
G0 X58.53 Y27.44
G4 P50
M3 S460
M3 S460
G1 X58.53 Y27.44 F400
G1 X58.35 Y27.68
G1 X58.29 Y28.08
G1 X58.17 Y28.39
G4 P30
M5
G0 X0 Y0
M2