; Generated by AI Handwriting Robot
G21
G90
G1 F800
M5
G0 X14.92 Y25.06
G4 P50
M3 S460
M3 S460
G1 X14.92 Y25.06 F400
G1 X14.91 Y25.48
G1 X14.93 Y25.87
G1 X14.98 Y26.31
G1 X15.00 Y26.73
G1 X15.00 Y27.18
M3 S470
G1 X14.96 Y27.56 F475
G1 X15.09 Y27.91
G1 X15.09 Y28.37
G1 X14.99 Y28.70
G1 X14.48 Y28.69
G1 X14.12 Y28.73
M3 S495
G1 X13.62 Y28.83 F663
G1 X13.12 Y28.82
G1 X12.73 Y28.95
G1 X12.35 Y29.05
G1 X12.01 Y29.07
G1 X11.81 Y28.75
M3 S522
G1 X11.55 Y28.38 F870
G1 X11.64 Y27.99
G1 X11.61 Y27.57
G1 X11.55 Y27.13
G1 X11.49 Y26.74
G1 X11.46 Y26.33
M3 S538
G1 X11.48 Y25.89 F991
G1 X11.46 Y25.47
G1 X11.61 Y25.11
G4 P30
M5
M5
G0 X11.51 Y25.63
G4 P50
M3 S460
M3 S460
G1 X11.51 Y25.63 F400
G1 X11.08 Y25.89
G1 X10.88 Y26.27
G1 X10.50 Y26.60
G1 X10.07 Y26.90
G4 P30
M5
M5
G0 X14.76 Y28.69
G4 P50
M3 S460
M3 S460
G1 X14.76 Y28.69 F400
G1 X14.84 Y29.13
G1 X14.85 Y29.58
G1 X14.90 Y29.97
G1 X14.94 Y30.50
G1 X14.98 Y30.93
M3 S495
G1 X15.05 Y31.34 F663
G1 X15.01 Y31.80
G1 X15.43 Y31.92
G1 X15.59 Y31.68
G1 X15.92 Y31.31
G1 X16.18 Y30.98
M3 S538
G1 X16.51 Y30.71 F991
G1 X16.64 Y30.33
G4 P30
M5
M5
G0 X11.50 Y29.08
G4 P50
M3 S460
M3 S460
G1 X11.50 Y29.08 F400
G1 X11.59 Y29.62
G1 X11.64 Y30.21
G1 X11.54 Y30.78
G1 X11.59 Y31.30
G1 X11.76 Y31.87
G4 P30
M5
M5
G0 X17.05 Y27.08
G4 P50
M3 S460
M3 S460
G1 X17.05 Y27.08 F400
G1 X17.26 Y27.42
G1 X17.24 Y27.85
G1 X17.22 Y28.28
G1 X17.13 Y28.72
G1 X16.97 Y29.08
M3 S495
G1 X16.79 Y29.51 F663
G1 X16.76 Y29.88
G1 X16.50 Y30.23
G1 X16.47 Y30.64
G1 X16.16 Y31.00
G1 X15.92 Y31.33
M3 S538
G1 X15.70 Y31.66 F991
G1 X15.44 Y31.99
G4 P30
M5
M5
G0 X17.09 Y27.10
G4 P50
M3 S460
M3 S460
G1 X17.09 Y27.10 F400
G1 X16.82 Y27.53
G1 X16.61 Y27.92
G1 X16.61 Y28.46
G1 X16.59 Y28.95
G1 X16.62 Y29.51
M3 S540
G1 X16.58 Y30.03 F1000
G4 P30
M5
M5
G0 X18.21 Y29.81
G4 P50
M3 S460
M3 S460
G1 X18.21 Y29.81 F400
G1 X18.07 Y30.29
G1 X17.82 Y30.72
G1 X17.56 Y30.99
G1 X17.32 Y31.47
G1 X16.95 Y31.49
M3 S536
G1 X16.59 Y31.11 F970
G1 X16.43 Y30.64
G4 P30
M5
M5
G0 X20.20 Y25.75
G4 P50
M3 S460
M3 S460
G1 X20.20 Y25.75 F400
G1 X20.39 Y26.16
G1 X20.39 Y26.63
G1 X20.41 Y27.06
G1 X20.36 Y27.47
G1 X20.50 Y27.88
M3 S487
G1 X20.42 Y28.34 F607
G1 X20.16 Y28.75
G1 X20.17 Y29.26
G1 X20.07 Y29.63
G1 X20.04 Y30.03
G1 X20.03 Y30.50
M3 S532
G1 X19.81 Y30.83 F942
G1 X19.75 Y31.25
G1 X19.59 Y31.64
G1 X19.36 Y31.98
G4 P30
M5
M5
G0 X20.31 Y25.79
G4 P50
M3 S460
M3 S460
G1 X20.31 Y25.79 F400
G1 X20.11 Y26.22
G1 X20.04 Y26.68
G1 X19.94 Y27.16
G1 X20.05 Y27.71
G1 X19.93 Y28.12
M3 S528
G1 X20.12 Y28.59 F912
G1 X20.07 Y29.06
G1 X20.19 Y29.53
G4 P30
M5
M5
G0 X21.15 Y30.45
G4 P50
M3 S460
M3 S460
G1 X21.15 Y30.45 F400
G1 X20.99 Y30.89
G1 X20.92 Y31.31
G1 X20.68 Y31.70
G1 X20.18 Y31.46
G1 X20.08 Y30.97
M3 S540
G1 X19.94 Y30.46 F1000
G4 P30
M5
M5
G0 X22.28 Y25.62
G4 P50
M3 S460
M3 S460
G1 X22.28 Y25.62 F400
G1 X22.49 Y26.03
G1 X22.51 Y26.51
G1 X22.53 Y26.94
G1 X22.54 Y27.40
G1 X22.34 Y27.86
M3 S487
G1 X22.27 Y28.27 F607
G1 X22.17 Y28.77
G1 X22.38 Y29.13
G1 X22.20 Y29.59
G1 X22.14 Y30.08
G1 X22.21 Y30.42
M3 S532
G1 X21.96 Y30.86 F942
G1 X21.84 Y31.26
G1 X21.65 Y31.67
G1 X21.42 Y32.00
G4 P30
M5
M5
G0 X22.39 Y25.60
G4 P50
M3 S460
M3 S460
G1 X22.39 Y25.60 F400
G1 X22.25 Y26.05
G1 X22.19 Y26.51
G1 X22.07 Y26.99
G1 X22.25 Y27.44
G1 X22.05 Y27.96
M3 S528
G1 X22.21 Y28.44 F912
G1 X22.15 Y28.94
G1 X22.27 Y29.43
G4 P30
M5
M5
G0 X23.25 Y30.40
G4 P50
M3 S460
M3 S460
G1 X23.25 Y30.40 F400
G1 X23.04 Y30.90
G1 X23.01 Y31.32
G1 X22.57 Y31.66
G1 X22.34 Y31.43
G1 X22.20 Y30.89
M3 S540
G1 X22.02 Y30.42 F1000
G4 P30
M5
M5
G0 X24.31 Y27.11
G4 P50
M3 S460
M3 S460
G1 X24.31 Y27.11 F400
G1 X24.75 Y27.23
G1 X25.11 Y27.53
G1 X25.32 Y27.90
G1 X25.55 Y28.35
G1 X25.37 Y28.62
M3 S491
G1 X24.99 Y28.95 F633
G1 X24.57 Y29.21
G1 X24.21 Y29.25
G1 X23.83 Y28.93
G1 X23.83 Y28.44
G1 X23.74 Y28.03
M3 S536
G1 X23.76 Y27.57 F970
G1 X24.01 Y27.26
G1 X24.26 Y27.50
G4 P30
M5
M5
G0 X26.24 Y27.27
G4 P50
M3 S460
M3 S460
G1 X26.24 Y27.27 F400
G1 X26.21 Y27.69
G1 X25.86 Y28.08
G1 X25.60 Y28.25
G4 P30
M5
M5
G0 X23.46 Y27.66
G4 P50
M3 S460
M3 S460
G1 X23.46 Y27.66 F400
G1 X23.16 Y27.95
G1 X23.06 Y28.34
G1 X23.12 Y28.78
G1 X23.07 Y29.19
G1 X23.16 Y29.61
M3 S475
G1 X23.18 Y29.99 F512
G1 X23.31 Y30.48
G1 X23.39 Y30.78
G1 X23.67 Y31.26
G1 X23.95 Y31.63
G1 X24.06 Y31.91
M3 S508
G1 X24.46 Y31.89 F766
G1 X24.98 Y31.80
G1 X25.38 Y31.47
G1 X25.44 Y31.01
G1 X25.46 Y30.70
G1 X25.57 Y30.30
M3 S536
G1 X25.57 Y29.86 F970
G1 X25.54 Y29.41
G1 X25.48 Y29.00
G1 X25.39 Y28.60
G4 P30
M5
M5
G0 X37.62 Y24.96
G4 P50
M3 S460
M3 S460
G1 X37.62 Y24.96 F400
G1 X37.35 Y25.31
G1 X37.14 Y25.67
G1 X36.64 Y25.90
G1 X36.68 Y26.33
G1 X36.21 Y26.46
M3 S505
G1 X35.76 Y26.26 F742
G1 X35.67 Y25.89
G1 X35.73 Y25.43
G1 X36.01 Y25.26
G1 X36.45 Y25.49
G1 X36.62 Y25.91
G4 P30
M5
M5
G0 X31.56 Y25.36
G4 P50
M3 S460
M3 S460
G1 X31.56 Y25.36 F400
G1 X31.41 Y25.69
G1 X30.98 Y25.86
G1 X30.95 Y26.21
G4 P30
M5
M5
G0 X31.32 Y25.67
G4 P50
M3 S460
M3 S460
G1 X31.32 Y25.67 F400
G1 X31.46 Y26.09
G1 X31.47 Y26.56
G1 X31.48 Y27.00
G1 X31.67 Y27.50
G1 X31.79 Y27.96
M3 S495
G1 X31.49 Y28.34 F663
G1 X31.56 Y28.82
G1 X31.82 Y29.21
G1 X32.01 Y29.69
G1 X32.17 Y30.15
G1 X32.23 Y30.59
M3 S538
G1 X32.36 Y31.00 F991
G1 X32.22 Y31.37
G4 P30
M5
M5
G0 X36.52 Y26.30
G4 P50
M3 S460
M3 S460
G1 X36.52 Y26.30 F400
G1 X36.54 Y26.77
G1 X36.65 Y27.27
G1 X36.56 Y27.81
G1 X36.56 Y28.28
G1 X36.28 Y28.60
G4 P30
M5
M5
G0 X33.95 Y27.60
G4 P50
M3 S460
M3 S460
G1 X33.95 Y27.60 F400
G1 X33.92 Y28.03
G1 X33.92 Y28.52
G1 X33.60 Y28.84
G1 X33.59 Y29.20
G1 X33.33 Y29.72
M3 S500
G1 X33.18 Y30.07 F700
G1 X33.21 Y30.51
G1 X33.12 Y30.92
G1 X32.94 Y31.33
G1 X32.75 Y31.71
G1 X32.41 Y31.74
M3 S540
G1 X32.29 Y31.31 F1000
G4 P30
M5
M5
G0 X33.98 Y28.68
G4 P50
M3 S460
M3 S460
G1 X33.98 Y28.68 F400
G1 X34.22 Y29.19
G1 X34.32 Y29.84
G1 X34.67 Y30.22
G4 P30
M5
M5
G0 X36.11 Y28.68
G4 P50
M3 S460
M3 S460
G1 X36.11 Y28.68 F400
G1 X35.99 Y29.12
G1 X36.03 Y29.59
G1 X35.84 Y30.06
G1 X36.01 Y30.53
G1 X35.75 Y30.88
M3 S528
G1 X35.63 Y31.38 F912
G1 X35.34 Y31.68
G1 X35.09 Y31.97
G4 P30
M5
M5
G0 X34.36 Y30.27
G4 P50
M3 S460
M3 S460
G1 X34.36 Y30.27 F400
G1 X34.50 Y30.81
G1 X34.78 Y31.31
G1 X34.99 Y31.82
G4 P30
M5
M5
G0 X38.30 Y27.09
G4 P50
M3 S460
M3 S460
G1 X38.30 Y27.09 F400
G1 X38.77 Y27.21
G1 X39.09 Y27.51
G1 X39.32 Y27.89
G1 X39.52 Y28.32
G1 X39.33 Y28.67
M3 S491
G1 X39.16 Y28.99 F633
G1 X38.78 Y29.21
G1 X38.14 Y29.22
G1 X37.98 Y28.85
G1 X37.74 Y28.45
G1 X37.77 Y28.03
M3 S536
G1 X37.73 Y27.56 F970
G1 X37.99 Y27.25
G1 X38.25 Y27.48
G4 P30
M5
M5
G0 X40.22 Y27.29
G4 P50
M3 S460
M3 S460
G1 X40.22 Y27.29 F400
G1 X40.08 Y27.69
G1 X39.92 Y27.98
G1 X39.59 Y28.28
G4 P30
M5
M5
G0 X37.45 Y27.67
G4 P50
M3 S460
M3 S460
G1 X37.45 Y27.67 F400
G1 X37.14 Y27.95
G1 X37.03 Y28.35
G1 X37.09 Y28.76
G1 X37.04 Y29.18
G1 X37.14 Y29.60
M3 S475
G1 X37.14 Y30.11 F512
G1 X37.28 Y30.45
G1 X37.35 Y30.82
G1 X37.77 Y31.29
G1 X37.93 Y31.62
G1 X38.15 Y31.86
M3 S508
G1 X38.64 Y31.96 F766
G1 X38.90 Y31.72
G1 X39.24 Y31.42
G1 X39.18 Y31.10
G1 X39.51 Y30.74
G1 X39.55 Y30.22
M3 S536
G1 X39.52 Y29.86 F970
G1 X39.51 Y29.45
G1 X39.49 Y29.01
G1 X39.37 Y28.60
G4 P30
M5
M5
G0 X42.58 Y27.12
G4 P50
M3 S460
M3 S460
G1 X42.58 Y27.12 F400
G1 X42.64 Y27.60
G1 X42.58 Y28.16
G1 X42.76 Y28.62
G1 X42.33 Y29.04
G1 X42.35 Y28.71
M3 S528
G1 X42.28 Y28.26 F912
G1 X42.21 Y27.76
G1 X42.16 Y27.26
G4 P30
M5
M5
G0 X42.45 Y28.61
G4 P50
M3 S460
M3 S460
G1 X42.45 Y28.61 F400
G1 X42.53 Y29.09
G1 X42.51 Y29.57
G1 X42.66 Y30.08
G1 X42.77 Y30.60
G1 X42.77 Y31.08
M3 S540
G1 X42.83 Y31.59 F1000
G4 P30
M5
M5
G0 X42.14 Y29.14
G4 P50
M3 S460
M3 S460
G1 X42.14 Y29.14 F400
G1 X42.16 Y29.70
G1 X42.12 Y30.24
G1 X41.98 Y30.79
G1 X41.85 Y31.05
G4 P30
M5
M5
G0 X42.89 Y29.91
G4 P50
M3 S460
M3 S460
G1 X42.89 Y29.91 F400
G1 X42.90 Y30.41
G1 X42.90 Y30.86
G1 X42.76 Y31.41
G4 P30
M5
M5
G0 X41.34 Y31.68
G4 P50
M3 S460
M3 S460
G1 X41.34 Y31.68 F400
G1 X41.33 Y31.73
G1 X41.34 Y31.83
G1 X41.34 Y31.92
G4 P30
M5
M5
G0 X43.83 Y31.84
G4 P50
M3 S460
M3 S460
G1 X43.83 Y31.84 F400
G1 X43.80 Y31.93
G1 X43.89 Y31.95
G1 X43.86 Y32.01
G4 P30
M5
M5
G0 X45.62 Y25.64
G4 P50
M3 S460
M3 S460
G1 X45.62 Y25.64 F400
G1 X45.81 Y26.04
G1 X45.77 Y26.49
G1 X45.82 Y26.92
G1 X45.84 Y27.43
G1 X45.80 Y27.85
M3 S487
G1 X45.84 Y28.35 F607
G1 X45.70 Y28.79
G1 X45.80 Y29.17
G1 X45.42 Y29.56
G1 X45.62 Y29.99
G1 X45.46 Y30.47
M3 S532
G1 X45.36 Y30.83 F942
G1 X45.19 Y31.25
G1 X45.06 Y31.67
G1 X44.76 Y32.00
G4 P30
M5
M5
G0 X45.74 Y25.64
G4 P50
M3 S460
M3 S460
G1 X45.74 Y25.64 F400
G1 X45.56 Y26.05
G1 X45.46 Y26.56
G1 X45.53 Y27.02
G1 X45.47 Y27.54
G1 X45.36 Y27.96
M3 S528
G1 X45.46 Y28.46 F912
G1 X45.50 Y28.97
G1 X45.61 Y29.46
G4 P30
M5
M5
G0 X46.59 Y30.42
G4 P50
M3 S460
M3 S460
G1 X46.59 Y30.42 F400
G1 X46.41 Y30.85
G1 X46.34 Y31.37
G1 X45.98 Y31.75
G1 X45.67 Y31.40
G1 X45.53 Y30.99
M3 S540
G1 X45.36 Y30.44 F1000
G4 P30
M5
M5
G0 X49.42 Y25.71
G4 P50
M3 S460
M3 S460
G1 X49.42 Y25.71 F400
G1 X49.62 Y26.09
G1 X49.71 Y26.50
G1 X49.75 Y26.91
G1 X49.77 Y27.31
G1 X49.93 Y27.79
M3 S473
G1 X49.85 Y28.21 F503
G1 X49.91 Y28.60
G1 X49.87 Y29.00
G1 X49.55 Y29.20
G1 X49.49 Y28.74
G1 X49.13 Y28.67
M3 S505
G1 X48.75 Y28.95 F742
G1 X48.49 Y29.24
G1 X48.36 Y29.68
G1 X48.32 Y29.99
G1 X48.09 Y30.38
G1 X47.94 Y30.75
M3 S533
G1 X47.76 Y31.15 F952
G1 X47.59 Y31.46
G1 X47.39 Y31.79
G1 X46.96 Y31.76
G1 X46.77 Y31.42
G4 P30
M5
M5
G0 X49.58 Y25.89
G4 P50
M3 S460
M3 S460
G1 X49.58 Y25.89 F400
G1 X49.46 Y26.33
G1 X49.53 Y26.80
G1 X49.72 Y27.33
G1 X49.64 Y27.81
G1 X49.66 Y28.28
M3 S540
G1 X49.72 Y28.78 F1000
G4 P30
M5
M5
G0 X49.62 Y29.28
G4 P50
M3 S460
M3 S460
G1 X49.62 Y29.28 F400
G1 X49.69 Y29.74
G1 X49.67 Y30.24
G1 X49.80 Y30.68
G1 X49.64 Y31.09
G1 X49.45 Y31.42
M3 S505
G1 X49.05 Y31.88 F742
G1 X48.89 Y31.98
G1 X48.37 Y31.70
G1 X48.15 Y31.25
G1 X48.09 Y30.82
G1 X48.07 Y30.35
G4 P30
M5
M5
G0 X50.79 Y30.54
G4 P50
M3 S460
M3 S460
G1 X50.79 Y30.54 F400
G1 X50.67 Y31.00
G1 X50.60 Y31.48
G1 X50.22 Y31.73
G1 X49.96 Y31.22
G1 X49.78 Y30.73
G4 P30
M5
G0 X0 Y0
M2