; Generated by AI Handwriting Robot
G21
G90
G1 F800
M5
G0 X14.88 Y25.12
G4 P50
M3 S460
M3 S460
G1 X14.88 Y25.12 F400
G1 X14.90 Y25.55
G1 X14.92 Y25.98
G1 X14.99 Y26.42
G1 X15.00 Y26.84
G1 X14.87 Y27.25
M3 S470
G1 X14.98 Y27.67 F481
G1 X15.06 Y28.10
G1 X15.06 Y28.53
G1 X14.71 Y28.81
G1 X14.25 Y28.78
G1 X13.66 Y28.75
M3 S497
G1 X13.37 Y28.93 F681
G1 X12.95 Y28.97
G1 X12.52 Y29.02
G1 X12.21 Y29.06
G1 X11.75 Y28.97
G1 X11.67 Y28.58
M3 S525
G1 X11.65 Y28.10 F891
G1 X11.46 Y27.65
G1 X11.54 Y27.26
G1 X11.56 Y26.80
G1 X11.46 Y26.40
G1 X11.48 Y25.97
M3 S539
G1 X11.45 Y25.56 F997
G1 X11.60 Y25.17
G4 P30
M5
M5
G0 X11.50 Y25.65
G4 P50
M3 S460
M3 S460
G1 X11.50 Y25.65 F400
G1 X11.05 Y25.94
G1 X10.74 Y26.23
G1 X10.36 Y26.62
G1 X10.06 Y26.91
G4 P30
M5
M5
G0 X14.73 Y28.69
G4 P50
M3 S460
M3 S460
G1 X14.73 Y28.69 F400
G1 X14.79 Y29.13
G1 X14.86 Y29.55
G1 X14.96 Y30.02
G1 X14.91 Y30.44
G1 X15.03 Y30.79
M3 S495
G1 X15.01 Y31.24 F663
G1 X15.11 Y31.78
G1 X15.27 Y31.99
G1 X15.65 Y31.60
G1 X15.86 Y31.34
G1 X16.15 Y30.99
M3 S538
G1 X16.44 Y30.71 F991
G1 X16.60 Y30.33
G4 P30
M5
M5
G0 X11.49 Y29.13
G4 P50
M3 S460
M3 S460
G1 X11.49 Y29.13 F400
G1 X11.59 Y29.67
G1 X11.61 Y30.24
G1 X11.57 Y30.77
G1 X11.68 Y31.33
G1 X11.75 Y31.90
G4 P30
M5
M5
G0 X16.95 Y27.16
G4 P50
M3 S460
M3 S460
G1 X16.95 Y27.16 F400
G1 X17.16 Y27.49
G1 X17.15 Y27.93
G1 X17.18 Y28.39
G1 X17.02 Y28.75
G1 X16.90 Y29.16
M3 S495
G1 X16.90 Y29.55 F663
G1 X16.60 Y29.92
G1 X16.48 Y30.28
G1 X16.20 Y30.66
G1 X16.06 Y31.05
G1 X15.84 Y31.36
M3 S538
G1 X15.60 Y31.66 F991
G1 X15.36 Y32.01
G4 P30
M5
M5
G0 X17.00 Y27.15
G4 P50
M3 S460
M3 S460
G1 X17.00 Y27.15 F400
G1 X16.73 Y27.53
G1 X16.59 Y28.01
G1 X16.56 Y28.54
G1 X16.50 Y29.06
G1 X16.50 Y29.54
M3 S540
G1 X16.50 Y30.05 F1000
G4 P30
M5
M5
G0 X18.10 Y29.83
G4 P50
M3 S460
M3 S460
G1 X18.10 Y29.83 F400
G1 X17.95 Y30.29
G1 X17.83 Y30.72
G1 X17.57 Y31.05
G1 X17.26 Y31.49
G1 X16.96 Y31.48
M3 S536
G1 X16.54 Y31.11 F970
G1 X16.34 Y30.64
G4 P30
M5
M5
G0 X21.73 Y27.04
G4 P50
M3 S460
M3 S460
G1 X21.73 Y27.04 F400
G1 X21.74 Y27.46
G1 X21.81 Y27.87
G1 X21.82 Y28.33
G1 X21.83 Y28.69
G1 X21.79 Y29.15
M3 S478
G1 X21.73 Y29.53 F535
G1 X21.44 Y29.81
G1 X21.20 Y30.06
G1 X20.70 Y30.15
G1 X20.38 Y29.83
G1 X20.27 Y29.60
M3 S516
G1 X20.25 Y29.19 F820
G1 X19.99 Y28.80
G1 X19.91 Y28.21
G1 X19.74 Y27.87
G1 X19.76 Y27.47
G1 X19.34 Y27.36
M3 S539
G1 X19.06 Y27.64 F995
G1 X18.83 Y27.95
G4 P30
M5
M5
G0 X21.67 Y29.47
G4 P50
M3 S460
M3 S460
G1 X21.67 Y29.47 F400
G1 X21.86 Y30.01
G1 X21.98 Y30.56
G1 X22.06 Y31.23
G1 X22.46 Y30.93
G4 P30
M5
M5
G0 X21.87 Y31.29
G4 P50
M3 S460
M3 S460
G1 X21.87 Y31.29 F400
G1 X21.89 Y31.74
G1 X21.51 Y31.94
G1 X21.23 Y32.38
G1 X21.34 Y32.77
G1 X21.17 Y33.20
M3 S500
G1 X21.26 Y33.66 F700
G1 X21.59 Y33.98
G1 X21.78 Y33.60
G1 X21.97 Y33.17
G1 X21.93 Y32.71
G1 X21.94 Y32.29
M3 S540
G1 X21.89 Y31.83 F1000
G4 P30
M5
M5
G0 X27.47 Y27.09
G4 P50
M3 S460
M3 S460
G1 X27.47 Y27.09 F400
G1 X27.30 Y27.17
G1 X27.13 Y27.32
G1 X27.31 Y27.48
G4 P30
M5
M5
G0 X27.08 Y28.46
G4 P50
M3 S460
M3 S460
G1 X27.08 Y28.46 F400
G1 X27.00 Y28.93
G1 X26.99 Y29.42
G1 X27.07 Y29.88
G1 X27.06 Y30.35
G1 X26.92 Y30.79
M3 S528
G1 X26.82 Y31.26 F912
G1 X26.72 Y31.68
G1 X26.44 Y32.02
G4 P30
M5
M5
G0 X27.86 Y30.07
G4 P50
M3 S460
M3 S460
G1 X27.86 Y30.07 F400
G1 X27.87 Y30.57
G1 X27.81 Y31.08
G1 X27.60 Y31.46
G1 X27.24 Y31.66
G1 X27.07 Y31.08
M3 S540
G1 X27.01 Y30.63 F1000
G4 P30
M5
M5
G0 X30.54 Y27.12
G4 P50
M3 S460
M3 S460
G1 X30.54 Y27.12 F400
G1 X30.70 Y27.52
G1 X30.73 Y27.95
G1 X30.74 Y28.37
G1 X30.83 Y28.78
G1 X30.92 Y29.24
M3 S467
G1 X30.98 Y29.65 F453
G1 X31.16 Y30.00
G1 X31.39 Y29.73
G1 X31.37 Y29.33
G1 X31.40 Y28.89
G1 X31.70 Y28.56
M3 S486
G1 X31.87 Y28.14 F595
G1 X31.95 Y27.79
G1 X32.06 Y27.44
G1 X32.46 Y27.49
G1 X32.40 Y27.87
G1 X32.41 Y28.31
M3 S510
G1 X32.56 Y28.73 F775
G1 X32.45 Y29.09
G1 X32.47 Y29.50
G1 X32.61 Y30.04
G1 X32.64 Y30.44
G1 X32.66 Y30.91
M3 S530
G1 X32.73 Y31.22 F927
G1 X32.78 Y31.65
G1 X33.09 Y31.87
G1 X33.17 Y31.50
G1 X33.22 Y31.10
G1 X33.34 Y30.68
M3 S539
G1 X33.39 Y30.28 F998
G1 X33.41 Y29.86
G4 P30
M5
M5
G0 X28.68 Y27.15
G4 P50
M3 S460
M3 S460
G1 X28.68 Y27.15 F400
G1 X28.86 Y27.59
G1 X28.93 Y28.06
G1 X29.02 Y28.50
G1 X29.04 Y28.94
G1 X29.14 Y29.42
M3 S512
G1 X29.20 Y29.91 F792
G1 X29.25 Y30.37
G1 X29.42 Y30.75
G1 X29.43 Y31.22
G1 X29.44 Y31.70
G4 P30
M5
M5
G0 X30.49 Y27.16
G4 P50
M3 S460
M3 S460
G1 X30.49 Y27.16 F400
G1 X30.18 Y27.61
G1 X30.08 Y28.03
G1 X30.09 Y28.54
G1 X29.97 Y29.05
G1 X29.75 Y29.50
M3 S536
G1 X29.67 Y30.00 F970
G1 X29.50 Y30.45
G4 P30
M5
M5
G0 X28.77 Y27.22
G4 P50
M3 S460
M3 S460
G1 X28.77 Y27.22 F400
G1 X28.60 Y27.58
G1 X28.52 Y27.93
G1 X28.37 Y28.32
G4 P30
M5
M5
G0 X31.06 Y30.12
G4 P50
M3 S460
M3 S460
G1 X31.06 Y30.12 F400
G1 X31.19 Y30.58
G1 X31.15 Y31.13
G1 X31.13 Y31.65
G4 P30
M5
M5
G0 X42.70 Y24.96
G4 P50
M3 S460
M3 S460
G1 X42.70 Y24.96 F400
G1 X42.69 Y25.37
G1 X42.72 Y25.79
G1 X42.72 Y26.26
G1 X42.84 Y26.67
G1 X42.65 Y27.07
M3 S470
G1 X42.90 Y27.48 F475
G1 X42.92 Y27.89
G1 X42.79 Y28.36
G1 X42.62 Y28.65
G1 X42.33 Y28.58
G1 X41.81 Y28.78
M3 S495
G1 X41.45 Y28.71 F663
G1 X41.05 Y28.73
G1 X40.67 Y28.90
G1 X40.12 Y28.94
G1 X39.63 Y29.04
G1 X39.58 Y28.71
M3 S522
G1 X39.46 Y28.27 F870
G1 X39.38 Y27.90
G1 X39.32 Y27.43
G1 X39.25 Y27.05
G1 X39.24 Y26.63
G1 X39.23 Y26.24
M3 S538
G1 X39.21 Y25.80 F991
G1 X39.18 Y25.39
G1 X39.34 Y25.01
G4 P30
M5
M5
G0 X39.24 Y25.51
G4 P50
M3 S460
M3 S460
G1 X39.24 Y25.51 F400
G1 X38.88 Y25.76
G1 X38.58 Y26.08
G1 X38.24 Y26.46
G1 X37.78 Y26.79
G4 P30
M5
M5
G0 X42.54 Y28.62
G4 P50
M3 S460
M3 S460
G1 X42.54 Y28.62 F400
G1 X42.63 Y29.06
G1 X42.63 Y29.52
G1 X42.73 Y29.97
G1 X42.67 Y30.44
G1 X42.87 Y30.84
M3 S495
G1 X42.93 Y31.30 F663
G1 X42.92 Y31.73
G1 X43.20 Y31.99
G1 X43.62 Y31.59
G1 X43.59 Y31.31
G1 X43.99 Y30.96
M3 S538
G1 X44.35 Y30.68 F991
G1 X44.45 Y30.29
G4 P30
M5
M5
G0 X39.24 Y29.09
G4 P50
M3 S460
M3 S460
G1 X39.24 Y29.09 F400
G1 X39.31 Y29.61
G1 X39.41 Y30.05
G1 X39.31 Y30.49
G1 X39.37 Y31.05
G1 X39.38 Y31.40
M3 S540
G1 X39.49 Y31.92 F1000
G4 P30
M5
M5
G0 X44.83 Y27.01
G4 P50
M3 S460
M3 S460
G1 X44.83 Y27.01 F400
G1 X45.03 Y27.38
G1 X45.03 Y27.81
G1 X44.93 Y28.27
G1 X44.96 Y28.69
G1 X44.76 Y29.02
M3 S495
G1 X44.52 Y29.44 F663
G1 X44.35 Y29.87
G1 X44.21 Y30.28
G1 X44.23 Y30.62
G1 X43.95 Y31.02
G1 X43.69 Y31.31
M3 S538
G1 X43.43 Y31.65 F991
G1 X43.20 Y31.98
G4 P30
M5
M5
G0 X44.88 Y27.05
G4 P50
M3 S460
M3 S460
G1 X44.88 Y27.05 F400
G1 X44.62 Y27.48
G1 X44.33 Y27.89
G1 X44.36 Y28.42
G1 X44.47 Y28.97
G1 X44.31 Y29.47
M3 S540
G1 X44.36 Y30.01 F1000
G4 P30
M5
M5
G0 X46.01 Y29.78
G4 P50
M3 S460
M3 S460
G1 X46.01 Y29.78 F400
G1 X45.94 Y30.22
G1 X45.68 Y30.69
G1 X45.42 Y31.12
G1 X45.25 Y31.48
G1 X44.82 Y31.46
M3 S536
G1 X44.42 Y31.08 F970
G1 X44.20 Y30.61
G4 P30
M5
M5
G0 X49.72 Y27.16
G4 P50
M3 S460
M3 S460
G1 X49.72 Y27.16 F400
G1 X50.13 Y27.26
G1 X50.34 Y27.64
G1 X50.38 Y28.08
G1 X50.47 Y28.51
G1 X50.49 Y28.93
M3 S480
G1 X50.42 Y29.34 F550
G1 X50.08 Y29.65
G1 X49.84 Y29.76
G1 X49.41 Y29.98
G1 X49.12 Y29.77
G1 X48.82 Y29.44
M3 S520
G1 X48.52 Y29.09 F850
G1 X48.38 Y28.67
G1 X48.55 Y28.21
G1 X48.71 Y27.88
G1 X48.98 Y27.50
G1 X49.30 Y27.30
M3 S540
G1 X49.70 Y27.17 F1000
G4 P30
M5
M5
G0 X48.33 Y29.02
G4 P50
M3 S460
M3 S460
G1 X48.33 Y29.02 F400
G1 X48.12 Y29.38
G1 X47.72 Y29.84
G1 X47.26 Y29.67
G1 X46.81 Y29.42
G4 P30
M5
M5
G0 X50.29 Y29.47
G4 P50
M3 S460
M3 S460
G1 X50.29 Y29.47 F400
G1 X50.49 Y30.11
G1 X50.59 Y30.53
G1 X51.03 Y30.38
G1 X51.35 Y29.89
G4 P30
M5
M5
G0 X50.35 Y30.73
G4 P50
M3 S460
M3 S460
G1 X50.35 Y30.73 F400
G1 X50.35 Y31.14
G1 X50.13 Y31.46
G1 X49.85 Y31.76
G1 X49.75 Y32.23
G1 X49.74 Y32.55
M3 S487
G1 X49.47 Y33.03 F607
G1 X49.67 Y33.42
G1 X49.88 Y33.81
G1 X50.30 Y33.88
G1 X50.61 Y33.51
G1 X50.53 Y33.08
M3 S532
G1 X50.54 Y32.64 F942
G1 X50.50 Y32.23
G1 X50.42 Y31.80
G1 X50.33 Y31.39
G4 P30
M5
M5
G0 X53.42 Y27.07
G4 P50
M3 S460
M3 S460
G1 X53.42 Y27.07 F400
G1 X53.27 Y27.42
G1 X52.91 Y27.62
G1 X52.66 Y28.02
G1 X52.68 Y28.42
G1 X52.51 Y28.87
M3 S487
G1 X52.36 Y29.17 F607
G1 X52.38 Y29.65
G1 X52.21 Y30.02
G1 X52.19 Y30.35
G1 X52.07 Y30.80
G1 X51.97 Y31.18
M3 S532
G1 X51.88 Y31.61 F942
G1 X51.60 Y31.97
G1 X51.32 Y31.70
G1 X51.13 Y31.29
G4 P30
M5
M5
G0 X53.63 Y27.38
G4 P50
M3 S460
M3 S460
G1 X53.63 Y27.38 F400
G1 X53.68 Y27.58
G1 X53.82 Y27.86
G1 X53.98 Y27.98
G4 P30
M5
M5
G0 X53.60 Y27.96
G4 P50
M3 S460
M3 S460
G1 X53.60 Y27.96 F400
G1 X53.63 Y28.40
G1 X53.69 Y28.82
G1 X53.72 Y29.26
G1 X53.85 Y29.66
G1 X53.89 Y30.04
M3 S480
G1 X53.86 Y30.53 F550
G1 X54.05 Y31.01
G1 X53.87 Y31.40
G1 X53.67 Y31.66
G1 X53.29 Y31.95
G1 X53.04 Y31.72
M3 S520
G1 X52.91 Y31.28 F850
G1 X52.75 Y30.87
G1 X52.59 Y30.45
G1 X52.77 Y30.01
G1 X52.64 Y29.55
G1 X52.62 Y29.14
M3 S540
G1 X52.60 Y28.71 F1000
G4 P30
M5
M5
G0 X54.57 Y30.36
G4 P50
M3 S460
M3 S460
G1 X54.57 Y30.36 F400
G1 X54.54 Y30.84
G1 X54.47 Y31.35
G1 X54.38 Y31.79
G1 X54.03 Y31.71
G1 X53.85 Y31.24
G4 P30
M5
M5
G0 X57.09 Y27.06
G4 P50
M3 S460
M3 S460
G1 X57.09 Y27.06 F400
G1 X56.96 Y27.47
G1 X56.79 Y27.91
G1 X56.71 Y28.38
G1 X56.52 Y28.77
G1 X56.40 Y29.23
M3 S505
G1 X56.34 Y29.71 F742
G1 X56.43 Y30.16
G1 X56.16 Y30.62
G1 X56.18 Y31.07
G1 X56.17 Y31.53
G1 X56.21 Y32.00
G4 P30
M5
M5
G0 X57.07 Y27.31
G4 P50
M3 S460
M3 S460
G1 X57.07 Y27.31 F400
G1 X57.14 Y27.77
G1 X57.31 Y28.21
G1 X57.29 Y28.67
G1 X57.37 Y29.10
G1 X57.31 Y29.55
M3 S487
G1 X57.50 Y29.99 F607
G1 X57.63 Y30.49
G1 X57.69 Y30.91
G1 X57.80 Y31.37
G1 X58.05 Y31.18
G1 X58.10 Y30.69
M3 S532
G1 X58.25 Y30.33 F942
G1 X58.39 Y29.90
G1 X58.45 Y29.49
G1 X58.54 Y29.06
G4 P30
M5
M5
G0 X55.53 Y27.36
G4 P50
M3 S460
M3 S460
G1 X55.53 Y27.36 F400
G1 X55.79 Y27.75
G1 X55.88 Y28.17
G1 X55.79 Y28.72
G1 X55.71 Y29.01
G1 X55.97 Y29.58
M3 S536
G1 X56.01 Y30.03 F970
G1 X56.18 Y30.45
G4 P30
M5
M5
G0 X55.59 Y27.40
G4 P50
M3 S460
M3 S460
G1 X55.59 Y27.40 F400
G1 X55.37 Y27.69
G1 X55.38 Y28.07
G1 X55.23 Y28.35
G4 P30
M5
G0 X0 Y0
M2