; Generated by AI Handwriting Robot
G21
G90
G1 F800
M5
G0 X12.79 Y24.98
G4 P50
M3 S460
M3 S460
G1 X12.79 Y24.98 F400
G1 X12.81 Y25.40
G1 X12.85 Y25.84
G1 X12.82 Y26.26
G1 X12.99 Y26.65
G1 X12.97 Y27.14
M3 S475
G1 X13.00 Y27.60 F512
G1 X12.96 Y27.98
G1 X13.11 Y28.42
G1 X13.13 Y28.80
G1 X13.16 Y29.27
G1 X13.08 Y29.71
M3 S508
G1 X13.36 Y30.07 F766
G1 X13.28 Y30.61
G1 X13.29 Y30.96
G1 X13.10 Y31.40
G1 X13.01 Y31.79
G1 X12.79 Y31.98
M3 S536
G1 X12.31 Y31.83 F970
G1 X12.07 Y31.42
G1 X11.98 Y31.01
G1 X12.05 Y30.58
G4 P30
M5
M5
G0 X11.24 Y25.25
G4 P50
M3 S460
M3 S460
G1 X11.24 Y25.25 F400
G1 X11.89 Y25.34
G1 X12.53 Y25.55
G1 X13.14 Y25.49
G4 P30
M5
M5
G0 X11.02 Y25.25
G4 P50
M3 S460
M3 S460
G1 X11.02 Y25.25 F400
G1 X11.14 Y25.21
G1 X11.08 Y25.24
G1 X11.25 Y25.25
G4 P30
M5
M5
G0 X10.89 Y25.30
G4 P50
M3 S460
M3 S460
G1 X10.89 Y25.30 F400
G1 X10.45 Y25.60
G1 X10.12 Y25.98
G1 X9.85 Y26.35
G1 X10.23 Y26.90
G1 X10.56 Y26.86
G4 P30
M5
M5
G0 X17.81 Y25.70
G4 P50
M3 S460
M3 S460
G1 X17.81 Y25.70 F400
G1 X18.02 Y26.06
G1 X18.00 Y26.50
G1 X17.81 Y26.82
G1 X17.72 Y27.20
G1 X17.56 Y27.66
M3 S520
G1 X17.55 Y28.13 F850
G1 X17.26 Y28.37
G1 X16.85 Y28.69
G1 X16.52 Y28.92
G4 P30
M5
M5
G0 X17.88 Y25.70
G4 P50
M3 S460
M3 S460
G1 X17.88 Y25.70 F400
G1 X17.72 Y25.94
G1 X17.59 Y26.45
G1 X17.77 Y26.81
G4 P30
M5
M5
G0 X17.28 Y28.24
G4 P50
M3 S460
M3 S460
G1 X17.28 Y28.24 F400
G1 X17.36 Y28.69
G1 X17.37 Y29.15
G1 X17.32 Y29.58
G1 X17.10 Y30.02
G1 X17.40 Y30.48
M3 S505
G1 X17.66 Y30.33 F742
G1 X17.94 Y29.96
G1 X18.11 Y29.54
G1 X18.50 Y29.21
G1 X18.76 Y28.94
G1 X18.93 Y28.58
G4 P30
M5
M5
G0 X18.83 Y28.87
G4 P50
M3 S460
M3 S460
G1 X18.83 Y28.87 F400
G1 X18.87 Y29.30
G1 X18.99 Y29.78
G1 X19.02 Y30.26
G1 X19.21 Y30.64
G1 X19.14 Y31.08
M3 S520
G1 X19.25 Y31.54 F850
G1 X19.58 Y31.58
G1 X19.86 Y31.29
G1 X20.04 Y30.88
G4 P30
M5
M5
G0 X17.29 Y30.59
G4 P50
M3 S460
M3 S460
G1 X17.29 Y30.59 F400
G1 X17.04 Y31.08
G1 X17.18 Y31.50
G1 X17.14 Y31.99
G4 P30
M5
M5
G0 X23.04 Y27.04
G4 P50
M3 S460
M3 S460
G1 X23.04 Y27.04 F400
G1 X22.87 Y27.40
G1 X22.54 Y27.63
G1 X22.41 Y28.01
G1 X22.24 Y28.31
G1 X22.03 Y28.78
M3 S487
G1 X22.11 Y29.15 F607
G1 X21.86 Y29.53
G1 X21.81 Y30.03
G1 X21.72 Y30.35
G1 X21.73 Y30.82
G1 X21.57 Y31.24
M3 S532
G1 X21.46 Y31.62 F942
G1 X21.18 Y31.93
G1 X20.95 Y31.69
G1 X20.75 Y31.28
G4 P30
M5
M5
G0 X23.25 Y27.37
G4 P50
M3 S460
M3 S460
G1 X23.25 Y27.37 F400
G1 X23.29 Y27.64
G1 X23.50 Y27.83
G1 X23.60 Y27.97
G4 P30
M5
M5
G0 X23.22 Y27.92
G4 P50
M3 S460
M3 S460
G1 X23.22 Y27.92 F400
G1 X23.24 Y28.35
G1 X23.27 Y28.77
G1 X23.36 Y29.22
G1 X23.42 Y29.67
G1 X23.61 Y30.09
M3 S480
G1 X23.48 Y30.46 F550
G1 X23.35 Y30.89
G1 X23.54 Y31.37
G1 X23.18 Y31.64
G1 X23.01 Y31.96
G1 X22.56 Y31.65
M3 S520
G1 X22.53 Y31.24 F850
G1 X22.49 Y30.89
G1 X22.37 Y30.42
G1 X22.33 Y29.95
G1 X22.29 Y29.52
G1 X22.26 Y29.10
M3 S540
G1 X22.21 Y28.67 F1000
G4 P30
M5
M5
G0 X24.20 Y30.31
G4 P50
M3 S460
M3 S460
G1 X24.20 Y30.31 F400
G1 X24.17 Y30.82
G1 X24.12 Y31.34
G1 X23.92 Y31.77
G1 X23.62 Y31.68
G1 X23.47 Y31.20
G4 P30
M5
M5
G0 X27.69 Y25.77
G4 P50
M3 S460
M3 S460
G1 X27.69 Y25.77 F400
G1 X27.88 Y26.14
G1 X27.96 Y26.58
G1 X28.02 Y27.00
G1 X28.06 Y27.44
G1 X28.10 Y27.81
M3 S473
G1 X28.25 Y28.27 F503
G1 X28.13 Y28.60
G1 X28.25 Y29.10
G1 X27.97 Y29.10
G1 X27.86 Y28.75
G1 X27.53 Y28.80
M3 S505
G1 X27.07 Y28.93 F742
G1 X26.80 Y29.28
G1 X26.73 Y29.67
G1 X26.59 Y30.14
G1 X26.35 Y30.47
G1 X26.30 Y30.82
M3 S533
G1 X26.08 Y31.14 F952
G1 X25.81 Y31.51
G1 X25.62 Y31.83
G1 X25.25 Y31.80
G1 X25.05 Y31.45
G4 P30
M5
M5
G0 X27.85 Y25.88
G4 P50
M3 S460
M3 S460
G1 X27.85 Y25.88 F400
G1 X27.76 Y26.34
G1 X27.72 Y26.76
G1 X27.81 Y27.29
G1 X27.86 Y27.80
G1 X28.00 Y28.25
M3 S540
G1 X27.99 Y28.76 F1000
G4 P30
M5
M5
G0 X27.88 Y29.34
G4 P50
M3 S460
M3 S460
G1 X27.88 Y29.34 F400
G1 X27.94 Y29.77
G1 X27.95 Y30.28
G1 X28.09 Y30.72
G1 X27.87 Y31.03
G1 X27.78 Y31.52
M3 S505
G1 X27.43 Y31.89 F742
G1 X27.07 Y32.08
G1 X26.68 Y31.73
G1 X26.58 Y31.30
G1 X26.40 Y30.84
G1 X26.34 Y30.40
G4 P30
M5
M5
G0 X29.05 Y30.54
G4 P50
M3 S460
M3 S460
G1 X29.05 Y30.54 F400
G1 X28.89 Y31.02
G1 X28.79 Y31.51
G1 X28.42 Y31.70
G1 X28.25 Y31.28
G1 X28.05 Y30.73
G4 P30
M5
M5
G0 X34.93 Y27.13
G4 P50
M3 S460
M3 S460
G1 X34.93 Y27.13 F400
G1 X34.76 Y27.49
G1 X34.37 Y27.76
G1 X34.36 Y28.18
G1 X34.12 Y28.62
G1 X33.88 Y28.97
M3 S491
G1 X33.89 Y29.42 F633
G1 X33.87 Y29.81
G1 X33.74 Y30.31
G1 X33.60 Y30.72
G1 X33.47 Y31.17
G1 X33.39 Y31.54
M3 S536
G1 X33.18 Y31.95 F970
G1 X32.87 Y31.74
G1 X32.67 Y31.31
G4 P30
M5
M5
G0 X35.14 Y27.43
G4 P50
M3 S460
M3 S460
G1 X35.14 Y27.43 F400
G1 X35.29 Y27.62
G1 X35.40 Y27.86
G1 X35.48 Y28.02
G4 P30
M5
M5
G0 X35.11 Y28.02
G4 P50
M3 S460
M3 S460
G1 X35.11 Y28.02 F400
G1 X35.16 Y28.44
G1 X35.18 Y28.86
G1 X35.22 Y29.26
G1 X35.30 Y29.70
G1 X35.44 Y30.20
M3 S480
G1 X35.37 Y30.60 F550
G1 X35.39 Y31.01
G1 X35.45 Y31.37
G1 X35.09 Y31.76
G1 X34.95 Y31.94
G1 X34.52 Y31.72
M3 S520
G1 X34.38 Y31.32 F850
G1 X34.30 Y30.92
G1 X34.33 Y30.45
G1 X34.26 Y30.05
G1 X34.13 Y29.60
G1 X34.15 Y29.18
M3 S540
G1 X34.12 Y28.76 F1000
G4 P30
M5
M5
G0 X36.08 Y30.36
G4 P50
M3 S460
M3 S460
G1 X36.08 Y30.36 F400
G1 X36.15 Y30.85
G1 X35.98 Y31.30
G1 X35.91 Y31.74
G1 X35.49 Y31.67
G1 X35.36 Y31.23
G4 P30
M5
M5
G0 X41.53 Y27.08
G4 P50
M3 S460
M3 S460
G1 X41.53 Y27.08 F400
G1 X41.52 Y27.10
G1 X41.72 Y27.18
G1 X41.65 Y27.27
G4 P30
M5
M5
G0 X41.55 Y28.20
G4 P50
M3 S460
M3 S460
G1 X41.55 Y28.20 F400
G1 X41.46 Y28.65
G1 X41.45 Y29.08
G1 X41.51 Y29.53
G1 X41.05 Y29.91
G1 X40.84 Y30.25
M3 S536
G1 X40.54 Y30.60 F970
G1 X40.25 Y30.91
G4 P30
M5
M5
G0 X41.23 Y29.54
G4 P50
M3 S460
M3 S460
G1 X41.23 Y29.54 F400
G1 X41.33 Y29.98
G1 X41.37 Y30.42
G1 X41.39 Y30.93
G1 X41.48 Y31.36
G1 X41.60 Y31.80
M3 S484
G1 X41.19 Y32.07 F585
G1 X41.16 Y32.42
G1 X40.85 Y32.86
G1 X40.78 Y33.30
G1 X41.04 Y33.73
G1 X41.32 Y33.87
M3 S528
G1 X41.60 Y33.60 F912
G1 X41.77 Y33.18
G1 X41.70 Y32.73
G1 X41.67 Y32.31
G1 X41.62 Y31.87
G4 P30
M5
M5
G0 X43.10 Y29.78
G4 P50
M3 S460
M3 S460
G1 X43.10 Y29.78 F400
G1 X42.94 Y30.24
G1 X42.59 Y30.72
G1 X42.15 Y31.08
G1 X41.75 Y31.40
G4 P30
M5
M5
G0 X43.66 Y27.12
G4 P50
M3 S460
M3 S460
G1 X43.66 Y27.12 F400
G1 X44.09 Y27.23
G1 X44.49 Y27.53
G1 X44.70 Y27.91
G1 X44.95 Y28.39
G1 X44.63 Y28.66
M3 S491
G1 X44.17 Y28.95 F633
G1 X44.06 Y29.26
G1 X43.76 Y29.27
G1 X43.21 Y28.90
G1 X43.10 Y28.51
G1 X43.11 Y28.00
M3 S536
G1 X43.05 Y27.55 F970
G1 X43.32 Y27.28
G1 X43.61 Y27.52
G4 P30
M5
M5
G0 X45.58 Y27.29
G4 P50
M3 S460
M3 S460
G1 X45.58 Y27.29 F400
G1 X45.37 Y27.67
G1 X45.33 Y28.06
G1 X44.94 Y28.27
G4 P30
M5
M5
G0 X42.81 Y27.70
G4 P50
M3 S460
M3 S460
G1 X42.81 Y27.70 F400
G1 X42.55 Y27.98
G1 X42.42 Y28.36
G1 X42.44 Y28.80
G1 X42.47 Y29.19
G1 X42.45 Y29.63
M3 S475
G1 X42.54 Y30.06 F512
G1 X42.57 Y30.40
G1 X42.76 Y30.88
G1 X43.00 Y31.24
G1 X43.26 Y31.62
G1 X43.62 Y31.93
M3 S508
G1 X44.02 Y32.00 F766
G1 X44.30 Y31.82
G1 X44.54 Y31.49
G1 X44.73 Y31.14
G1 X44.87 Y30.77
G1 X44.93 Y30.28
M3 S536
G1 X44.95 Y29.90 F970
G1 X44.90 Y29.45
G1 X44.85 Y29.04
G1 X44.73 Y28.63
G4 P30
M5
M5
G0 X47.85 Y25.68
G4 P50
M3 S460
M3 S460
G1 X47.85 Y25.68 F400
G1 X48.07 Y26.08
G1 X48.00 Y26.56
G1 X48.04 Y26.99
G1 X48.14 Y27.41
G1 X48.04 Y27.83
M3 S487
G1 X48.04 Y28.29 F607
G1 X47.88 Y28.83
G1 X47.80 Y29.18
G1 X47.78 Y29.61
G1 X47.86 Y30.02
G1 X47.72 Y30.41
M3 S532
G1 X47.63 Y30.84 F942
G1 X47.41 Y31.26
G1 X47.23 Y31.64
G1 X47.00 Y31.98
G4 P30
M5
M5
G0 X47.97 Y25.70
G4 P50
M3 S460
M3 S460
G1 X47.97 Y25.70 F400
G1 X47.80 Y26.13
G1 X47.70 Y26.61
G1 X47.62 Y27.00
G1 X47.55 Y27.59
G1 X47.62 Y28.07
M3 S528
G1 X47.73 Y28.52 F912
G1 X47.77 Y29.02
G1 X47.84 Y29.49
G4 P30
M5
M5
G0 X48.81 Y30.46
G4 P50
M3 S460
M3 S460
G1 X48.81 Y30.46 F400
G1 X48.68 Y30.91
G1 X48.42 Y31.34
G1 X48.14 Y31.73
G1 X47.81 Y31.45
G1 X47.74 Y30.94
M3 S540
G1 X47.59 Y30.47 F1000
G4 P30
M5
M5
G0 X49.89 Y25.75
G4 P50
M3 S460
M3 S460
G1 X49.89 Y25.75 F400
G1 X50.07 Y26.15
G1 X50.08 Y26.56
G1 X50.14 Y27.03
G1 X50.15 Y27.45
G1 X50.07 Y27.90
M3 S487
G1 X49.96 Y28.37 F607
G1 X49.80 Y28.72
G1 X49.88 Y29.22
G1 X49.89 Y29.59
G1 X49.67 Y30.10
G1 X49.82 Y30.44
M3 S532
G1 X49.57 Y30.90 F942
G1 X49.40 Y31.25
G1 X49.30 Y31.66
G1 X49.04 Y31.99
G4 P30
M5
M5
G0 X50.00 Y25.77
G4 P50
M3 S460
M3 S460
G1 X50.00 Y25.77 F400
G1 X49.90 Y26.18
G1 X49.62 Y26.66
G1 X49.71 Y27.15
G1 X49.85 Y27.67
G1 X49.78 Y28.09
M3 S528
G1 X49.81 Y28.52 F912
G1 X49.80 Y29.07
G1 X49.88 Y29.52
G4 P30
M5
M5
G0 X50.84 Y30.48
G4 P50
M3 S460
M3 S460
G1 X50.84 Y30.48 F400
G1 X50.61 Y30.91
G1 X50.50 Y31.37
G1 X50.25 Y31.79
G1 X49.83 Y31.50
G1 X49.81 Y30.98
M3 S540
G1 X49.63 Y30.50 F1000
G4 P30
M5
M5
G0 X53.53 Y27.17
G4 P50
M3 S460
M3 S460
G1 X53.53 Y27.17 F400
G1 X53.52 Y27.60
G1 X53.60 Y28.07
G1 X53.59 Y28.48
G1 X53.65 Y28.87
G1 X53.65 Y29.30
M3 S480
G1 X53.36 Y29.65 F550
G1 X53.09 Y29.97
G1 X52.82 Y30.23
G1 X52.28 Y30.20
G1 X52.11 Y29.88
G1 X51.93 Y29.39
M3 S520
G1 X51.82 Y28.97 F850
G1 X51.73 Y28.48
G1 X51.67 Y28.08
G1 X51.56 Y27.63
G1 X51.20 Y27.47
G1 X50.93 Y27.73
M3 S540
G1 X50.69 Y28.06 F1000
G4 P30
M5
M5
G0 X53.47 Y29.57
G4 P50
M3 S460
M3 S460
G1 X53.47 Y29.57 F400
G1 X53.57 Y30.09
G1 X53.67 Y30.64
G1 X53.79 Y31.24
G1 X54.24 Y31.01
G4 P30
M5
M5
G0 X53.67 Y31.30
G4 P50
M3 S460
M3 S460
G1 X53.67 Y31.30 F400
G1 X53.66 Y31.73
G1 X53.42 Y31.99
G1 X53.10 Y32.38
G1 X52.99 Y32.82
G1 X52.94 Y33.19
M3 S500
G1 X53.09 Y33.65 F700
G1 X53.39 Y33.88
G1 X53.76 Y33.55
G1 X53.61 Y33.13
G1 X53.70 Y32.72
G1 X53.71 Y32.29
M3 S540
G1 X53.68 Y31.83 F1000
G4 P30
M5
M5
G0 X61.01 Y25.66
G4 P50
M3 S460
M3 S460
G1 X61.01 Y25.66 F400
G1 X61.22 Y26.03
G1 X61.33 Y26.44
G1 X61.35 Y26.89
G1 X61.38 Y27.28
G1 X61.41 Y27.71
M3 S473
G1 X61.46 Y28.16 F503
G1 X61.49 Y28.54
G1 X61.46 Y28.98
G1 X61.35 Y29.03
G1 X60.97 Y28.66
G1 X60.55 Y28.58
M3 S505
G1 X60.27 Y28.86 F742
G1 X59.98 Y29.20
G1 X59.89 Y29.61
G1 X59.88 Y30.01
G1 X59.72 Y30.43
G1 X59.51 Y30.77
M3 S533
G1 X59.32 Y31.10 F952
G1 X59.22 Y31.47
G1 X58.90 Y31.81
G1 X58.55 Y31.77
G1 X58.34 Y31.43
G4 P30
M5
M5
G0 X61.17 Y25.80
G4 P50
M3 S460
M3 S460
G1 X61.17 Y25.80 F400
G1 X61.09 Y26.30
G1 X61.15 Y26.83
G1 X61.18 Y27.26
G1 X61.19 Y27.81
G1 X61.32 Y28.24
M3 S540
G1 X61.31 Y28.72 F1000
G4 P30
M5
M5
G0 X61.21 Y29.27
G4 P50
M3 S460
M3 S460
G1 X61.21 Y29.27 F400
G1 X61.26 Y29.73
G1 X61.37 Y30.18
G1 X61.32 Y30.67
G1 X61.12 Y31.06
G1 X60.99 Y31.52
M3 S505
G1 X60.83 Y31.79 F742
G1 X60.39 Y32.00
G1 X59.93 Y31.71
G1 X59.77 Y31.25
G1 X59.68 Y30.80
G1 X59.64 Y30.34
G4 P30
M5
M5
G0 X62.39 Y30.54
G4 P50
M3 S460
M3 S460
G1 X62.39 Y30.54 F400
G1 X62.25 Y31.04
G1 X62.06 Y31.57
G1 X61.66 Y31.72
G1 X61.61 Y31.25
G1 X61.37 Y30.73
G4 P30
M5
M5
G0 X64.67 Y27.11
G4 P50
M3 S460
M3 S460
G1 X64.67 Y27.11 F400
G1 X64.48 Y27.48
G1 X64.16 Y27.76
G1 X63.99 Y28.12
G1 X63.96 Y28.55
G1 X63.72 Y28.96
M3 S491
G1 X63.52 Y29.39 F633
G1 X63.55 Y29.80
G1 X63.26 Y30.24
G1 X63.28 Y30.66
G1 X63.22 Y31.09
G1 X63.17 Y31.53
M3 S536
G1 X62.84 Y31.92 F970
G1 X62.65 Y31.74
G1 X62.41 Y31.28
G4 P30
M5
M5
G0 X64.88 Y27.44
G4 P50
M3 S460
M3 S460
G1 X64.88 Y27.44 F400
G1 X65.15 Y27.69
G1 X65.08 Y27.90
G1 X65.23 Y28.03
G4 P30
M5
M5
G0 X64.85 Y27.97
G4 P50
M3 S460
M3 S460
G1 X64.85 Y27.97 F400
G1 X64.88 Y28.40
G1 X64.92 Y28.82
G1 X65.03 Y29.27
G1 X65.10 Y29.72
G1 X65.01 Y30.13
M3 S480
G1 X65.14 Y30.53 F550
G1 X65.20 Y30.97
G1 X65.14 Y31.38
G1 X64.88 Y31.69
G1 X64.76 Y31.94
G1 X64.41 Y31.67
M3 S520
G1 X64.13 Y31.24 F850
G1 X64.18 Y30.81
G1 X63.94 Y30.42
G1 X63.94 Y30.00
G1 X63.91 Y29.59
G1 X63.91 Y29.15
M3 S540
G1 X63.86 Y28.72 F1000
G4 P30
M5
M5
G0 X65.82 Y30.39
G4 P50
M3 S460
M3 S460
G1 X65.82 Y30.39 F400
G1 X65.84 Y30.85
G1 X65.65 Y31.34
G1 X65.63 Y31.82
G1 X65.26 Y31.72
G1 X65.11 Y31.26
G4 P30
M5
M5
G0 X69.25 Y27.09
G4 P50
M3 S460
M3 S460
G1 X69.25 Y27.09 F400
G1 X69.24 Y27.54
G1 X69.30 Y27.97
G1 X69.26 Y28.43
G1 X69.40 Y28.84
G1 X69.30 Y29.35
M3 S480
G1 X69.17 Y29.60 F550
G1 X68.89 Y29.96
G1 X68.50 Y30.12
G1 X68.01 Y30.13
G1 X67.87 Y29.74
G1 X67.72 Y29.27
M3 S520
G1 X67.50 Y28.88 F850
G1 X67.49 Y28.43
G1 X67.41 Y28.04
G1 X67.28 Y27.58
G1 X66.86 Y27.38
G1 X66.60 Y27.67
M3 S540
G1 X66.36 Y28.00 F1000
G4 P30
M5
M5
G0 X69.18 Y29.51
G4 P50
M3 S460
M3 S460
G1 X69.18 Y29.51 F400
G1 X69.27 Y30.06
G1 X69.31 Y30.62
G1 X69.55 Y31.14
G1 X69.97 Y30.97
G4 P30
M5
M5
G0 X69.39 Y31.29
G4 P50
M3 S460
M3 S460
G1 X69.39 Y31.29 F400
G1 X69.39 Y31.74
G1 X68.97 Y31.97
G1 X68.81 Y32.34
G1 X68.68 Y32.79
G1 X68.61 Y33.23
M3 S500
G1 X68.72 Y33.70 F700
G1 X69.15 Y33.96
G1 X69.38 Y33.59
G1 X69.36 Y33.19
G1 X69.49 Y32.73
G1 X69.43 Y32.28
M3 S540
G1 X69.40 Y31.82 F1000
G4 P30
M5
G0 X0 Y0
M2