; Generated by AI Handwriting Robot
G21
G90
G1 F800
M5
G0 X13.53 Y25.13
G4 P50
M3 S460
M3 S460
G1 X13.53 Y25.13 F400
G1 X13.96 Y25.22
G1 X14.13 Y25.62
G1 X14.01 Y26.00
G1 X13.84 Y26.41
G1 X13.73 Y26.77
M3 S476
G1 X13.47 Y27.05 F523
G1 X12.94 Y27.37
G1 X12.64 Y27.59
G1 X12.36 Y27.88
G1 X12.11 Y28.05
G1 X11.80 Y27.92
M3 S512
G1 X11.75 Y27.51 F792
G1 X11.67 Y27.07
G1 X11.62 Y26.68
G1 X11.82 Y26.25
G1 X12.09 Y25.89
G1 X12.43 Y25.60
M3 S538
G1 X12.72 Y25.34 F985
G1 X13.07 Y25.17
G1 X13.50 Y25.16
G4 P30
M5
M5
G0 X11.62 Y28.13
G4 P50
M3 S460
M3 S460
G1 X11.62 Y28.13 F400
G1 X10.97 Y28.37
G1 X10.58 Y28.54
G1 X10.02 Y28.68
G4 P30
M5
M5
G0 X11.75 Y28.15
G4 P50
M3 S460
M3 S460
G1 X11.75 Y28.15 F400
G1 X11.93 Y28.67
G1 X12.48 Y28.96
G1 X13.01 Y28.92
G1 X13.55 Y28.89
G1 X14.06 Y28.73
G4 P30
M5
M5
G0 X12.31 Y29.03
G4 P50
M3 S460
M3 S460
G1 X12.31 Y29.03 F400
G1 X12.12 Y29.40
G1 X11.87 Y29.75
G1 X11.82 Y30.19
G1 X11.82 Y30.61
G1 X12.06 Y31.07
M3 S495
G1 X12.32 Y31.41 F663
G1 X12.56 Y31.63
G1 X12.98 Y31.98
G1 X13.45 Y31.98
G1 X13.84 Y31.92
G1 X14.25 Y31.75
M3 S538
G1 X14.65 Y31.57 F991
G1 X14.95 Y31.38
G4 P30
M5
M5
G0 X16.34 Y27.18
G4 P50
M3 S460
M3 S460
G1 X16.34 Y27.18 F400
G1 X16.49 Y27.57
G1 X16.53 Y28.00
G1 X16.57 Y28.42
G1 X16.65 Y28.84
G1 X16.76 Y29.26
M3 S467
G1 X16.74 Y29.70 F453
G1 X16.96 Y30.04
G1 X17.20 Y29.84
G1 X17.20 Y29.44
G1 X17.29 Y28.93
G1 X17.54 Y28.56
M3 S486
G1 X17.52 Y28.22 F595
G1 X17.76 Y27.85
G1 X18.10 Y27.54
G1 X18.10 Y27.52
G1 X18.15 Y27.94
G1 X18.31 Y28.31
M3 S510
G1 X18.34 Y28.71 F775
G1 X18.25 Y29.24
G1 X18.32 Y29.61
G1 X18.42 Y30.03
G1 X18.48 Y30.47
G1 X18.49 Y30.89
M3 S530
G1 X18.56 Y31.35 F927
G1 X18.56 Y31.68
G1 X18.83 Y31.88
G1 X18.93 Y31.53
G1 X19.06 Y31.13
G1 X19.10 Y30.74
M3 S539
G1 X19.16 Y30.32 F998
G1 X19.19 Y29.90
G4 P30
M5
M5
G0 X14.49 Y27.20
G4 P50
M3 S460
M3 S460
G1 X14.49 Y27.20 F400
G1 X14.69 Y27.60
G1 X14.65 Y28.06
G1 X14.88 Y28.56
G1 X14.73 Y28.98
G1 X14.90 Y29.44
M3 S512
G1 X14.91 Y29.92 F792
G1 X15.11 Y30.39
G1 X15.30 Y30.85
G1 X15.25 Y31.28
G1 X15.25 Y31.72
G4 P30
M5
M5
G0 X16.29 Y27.23
G4 P50
M3 S460
M3 S460
G1 X16.29 Y27.23 F400
G1 X15.99 Y27.63
G1 X15.82 Y28.13
G1 X15.76 Y28.66
G1 X15.58 Y29.09
G1 X15.62 Y29.59
M3 S536
G1 X15.51 Y30.08 F970
G1 X15.30 Y30.50
G4 P30
M5
M5
G0 X14.57 Y27.26
G4 P50
M3 S460
M3 S460
G1 X14.57 Y27.26 F400
G1 X14.45 Y27.59
G1 X14.33 Y28.03
G1 X14.18 Y28.35
G4 P30
M5
M5
G0 X16.85 Y30.15
G4 P50
M3 S460
M3 S460
G1 X16.85 Y30.15 F400
G1 X16.94 Y30.58
G1 X16.94 Y31.15
G1 X16.92 Y31.67
G4 P30
M5
M5
G0 X22.05 Y25.76
G4 P50
M3 S460
M3 S460
G1 X22.05 Y25.76 F400
G1 X21.81 Y26.12
G1 X21.78 Y26.55
G1 X21.84 Y27.03
G1 X21.77 Y27.46
G1 X21.85 Y27.90
M3 S484
G1 X21.98 Y28.32 F585
G1 X21.94 Y28.71
G1 X21.90 Y29.18
G1 X21.80 Y29.56
G1 X21.66 Y29.95
G1 X21.55 Y30.35
M3 S528
G1 X21.39 Y30.67 F912
G1 X21.02 Y31.13
G1 X20.84 Y31.46
G1 X20.59 Y31.80
G1 X20.23 Y31.95
G4 P30
M5
M5
G0 X22.26 Y25.83
G4 P50
M3 S460
M3 S460
G1 X22.26 Y25.83 F400
G1 X22.44 Y26.24
G1 X22.54 Y26.77
G1 X22.53 Y27.22
G1 X22.47 Y27.69
G1 X22.26 Y28.10
G4 P30
M5
M5
G0 X23.57 Y28.58
G4 P50
M3 S460
M3 S460
G1 X23.57 Y28.58 F400
G1 X23.97 Y28.87
G1 X23.98 Y29.34
G1 X24.45 Y29.57
G1 X24.72 Y29.34
G1 X25.16 Y29.01
M3 S540
G1 X25.41 Y28.63 F1000
G4 P30
M5
M5
G0 X23.40 Y28.61
G4 P50
M3 S460
M3 S460
G1 X23.40 Y28.61 F400
G1 X23.12 Y28.92
G1 X23.08 Y29.33
G1 X23.21 Y29.74
G1 X23.68 Y29.92
G1 X23.85 Y30.18
M3 S487
G1 X23.79 Y30.69 F607
G1 X23.66 Y31.06
G1 X23.54 Y31.37
G1 X23.12 Y31.84
G1 X22.85 Y31.96
G1 X22.59 Y31.68
M3 S532
G1 X22.34 Y31.32 F942
G1 X22.07 Y30.93
G1 X21.99 Y30.49
G1 X22.09 Y30.10
G4 P30
M5
M5
G0 X21.87 Y29.61
G4 P50
M3 S460
M3 S460
G1 X21.87 Y29.61 F400
G1 X21.93 Y29.83
G1 X21.87 Y29.98
G1 X22.01 Y30.19
G4 P30
M5
M5
G0 X25.34 Y27.10
G4 P50
M3 S460
M3 S460
G1 X25.34 Y27.10 F400
G1 X25.38 Y27.53
G1 X25.39 Y28.03
G1 X25.44 Y28.44
G1 X25.24 Y28.87
G1 X25.09 Y29.07
M3 S520
G1 X24.93 Y28.59 F850
G1 X24.95 Y28.15
G1 X24.99 Y27.71
G1 X24.92 Y27.25
G4 P30
M5
M5
G0 X25.21 Y28.60
G4 P50
M3 S460
M3 S460
G1 X25.21 Y28.60 F400
G1 X25.27 Y29.09
G1 X25.25 Y29.58
G1 X25.47 Y30.15
G1 X25.35 Y30.64
G1 X25.49 Y31.09
M3 S540
G1 X25.59 Y31.59 F1000
G4 P30
M5
M5
G0 X24.89 Y29.13
G4 P50
M3 S460
M3 S460
G1 X24.89 Y29.13 F400
G1 X24.83 Y29.66
G1 X24.70 Y30.24
G1 X24.77 Y30.74
G1 X24.60 Y31.05
G4 P30
M5
M5
G0 X25.66 Y29.91
G4 P50
M3 S460
M3 S460
G1 X25.66 Y29.91 F400
G1 X25.64 Y30.43
G1 X25.66 Y30.98
G1 X25.53 Y31.41
G4 P30
M5
M5
G0 X24.09 Y31.68
G4 P50
M3 S460
M3 S460
G1 X24.09 Y31.68 F400
G1 X24.18 Y31.71
G1 X24.01 Y31.77
G1 X24.09 Y31.92
G4 P30
M5
M5
G0 X26.60 Y31.85
G4 P50
M3 S460
M3 S460
G1 X26.60 Y31.85 F400
G1 X26.55 Y31.84
G1 X26.57 Y31.97
G1 X26.63 Y32.02
G4 P30
M5
M5
G0 X29.67 Y27.11
G4 P50
M3 S460
M3 S460
G1 X29.67 Y27.11 F400
G1 X29.46 Y27.48
G1 X29.20 Y27.72
G1 X28.95 Y28.17
G1 X28.87 Y28.55
G1 X28.68 Y28.98
M3 S491
G1 X28.48 Y29.46 F633
G1 X28.51 Y29.81
G1 X28.43 Y30.25
G1 X28.23 Y30.71
G1 X28.32 Y31.14
G1 X28.08 Y31.53
M3 S536
G1 X27.91 Y31.95 F970
G1 X27.59 Y31.74
G1 X27.40 Y31.31
G4 P30
M5
M5
G0 X29.87 Y27.39
G4 P50
M3 S460
M3 S460
G1 X29.87 Y27.39 F400
G1 X29.92 Y27.55
G1 X30.05 Y27.82
G1 X30.22 Y27.98
G4 P30
M5
M5
G0 X29.85 Y27.97
G4 P50
M3 S460
M3 S460
G1 X29.85 Y27.97 F400
G1 X29.90 Y28.40
G1 X29.95 Y28.83
G1 X30.06 Y29.26
G1 X30.01 Y29.71
G1 X30.13 Y30.12
M3 S480
G1 X30.13 Y30.52 F550
G1 X30.15 Y30.97
G1 X30.04 Y31.36
G1 X29.85 Y31.74
G1 X29.63 Y32.03
G1 X29.22 Y31.73
M3 S520
G1 X29.15 Y31.29 F850
G1 X29.03 Y30.84
G1 X29.01 Y30.40
G1 X28.97 Y29.95
G1 X28.88 Y29.57
G1 X28.89 Y29.14
M3 S540
G1 X28.85 Y28.72 F1000
G4 P30
M5
M5
G0 X30.82 Y30.35
G4 P50
M3 S460
M3 S460
G1 X30.82 Y30.35 F400
G1 X30.74 Y30.84
G1 X30.76 Y31.36
G1 X30.50 Y31.69
G1 X30.25 Y31.71
G1 X30.10 Y31.23
G4 P30
M5
M5
G0 X33.67 Y27.12
G4 P50
M3 S460
M3 S460
G1 X33.67 Y27.12 F400
G1 X33.38 Y27.40
G1 X33.12 Y27.75
G1 X33.01 Y28.15
G1 X32.92 Y28.59
G1 X33.08 Y29.04
M3 S491
G1 X32.95 Y29.46 F633
G1 X32.80 Y29.85
G1 X32.65 Y30.17
G1 X32.70 Y30.63
G1 X32.50 Y31.04
G1 X32.29 Y31.39
M3 S536
G1 X32.15 Y31.77 F970
G1 X31.86 Y31.96
G1 X31.61 Y31.61
G4 P30
M5
M5
G0 X33.92 Y27.13
G4 P50
M3 S460
M3 S460
G1 X33.92 Y27.13 F400
G1 X34.10 Y27.30
G1 X34.17 Y27.58
G1 X34.20 Y27.77
G4 P30
M5
M5
G0 X32.81 Y29.84
G4 P50
M3 S460
M3 S460
G1 X32.81 Y29.84 F400
G1 X32.91 Y30.30
G1 X33.04 Y30.74
G1 X33.30 Y31.20
G1 X33.50 Y31.57
G1 X33.79 Y31.87
M3 S520
G1 X34.03 Y31.69 F850
G1 X34.28 Y31.26
G1 X34.42 Y30.81
G1 X34.41 Y30.37
G4 P30
M5
M5
G0 X36.39 Y27.11
G4 P50
M3 S460
M3 S460
G1 X36.39 Y27.11 F400
G1 X36.33 Y27.22
G1 X36.11 Y27.33
G1 X36.23 Y27.49
G4 P30
M5
M5
G0 X35.99 Y28.45
G4 P50
M3 S460
M3 S460
G1 X35.99 Y28.45 F400
G1 X35.98 Y28.93
G1 X36.03 Y29.40
G1 X35.88 Y29.85
G1 X36.06 Y30.33
G1 X35.88 Y30.89
M3 S528
G1 X35.75 Y31.24 F912
G1 X35.64 Y31.66
G1 X35.36 Y32.00
G4 P30
M5
M5
G0 X36.78 Y30.10
G4 P50
M3 S460
M3 S460
G1 X36.78 Y30.10 F400
G1 X36.80 Y30.59
G1 X36.74 Y31.13
G1 X36.43 Y31.56
G1 X36.15 Y31.68
G1 X36.03 Y31.14
M3 S540
G1 X35.93 Y30.66 F1000
G4 P30
M5
M5
G0 X39.19 Y27.03
G4 P50
M3 S460
M3 S460
G1 X39.19 Y27.03 F400
G1 X39.05 Y27.45
G1 X38.83 Y27.85
G1 X38.77 Y28.32
G1 X38.73 Y28.80
G1 X38.60 Y29.28
M3 S505
G1 X38.60 Y29.72 F742
G1 X38.32 Y30.05
G1 X38.32 Y30.56
G1 X38.28 Y31.07
G1 X38.33 Y31.50
G1 X38.31 Y31.98
G4 P30
M5
M5
G0 X39.17 Y27.32
G4 P50
M3 S460
M3 S460
G1 X39.17 Y27.32 F400
G1 X39.27 Y27.75
G1 X39.21 Y28.22
G1 X39.37 Y28.67
G1 X39.45 Y29.09
G1 X39.48 Y29.54
M3 S487
G1 X39.62 Y30.03 F607
G1 X39.61 Y30.45
G1 X39.73 Y30.89
G1 X39.70 Y31.33
G1 X40.26 Y31.14
G1 X40.20 Y30.70
M3 S532
G1 X40.44 Y30.35 F942
G1 X40.43 Y29.90
G1 X40.52 Y29.48
G1 X40.64 Y29.06
G4 P30
M5
M5
G0 X37.63 Y27.34
G4 P50
M3 S460
M3 S460
G1 X37.63 Y27.34 F400
G1 X37.84 Y27.70
G1 X37.99 Y28.12
G1 X37.88 Y28.66
G1 X37.88 Y29.09
G1 X38.00 Y29.49
M3 S536
G1 X38.16 Y29.96 F970
G1 X38.28 Y30.43
G4 P30
M5
M5
G0 X37.69 Y27.40
G4 P50
M3 S460
M3 S460
G1 X37.69 Y27.40 F400
G1 X37.57 Y27.77
G1 X37.43 Y28.06
G1 X37.33 Y28.35
G4 P30
M5
M5
G0 X44.37 Y27.13
G4 P50
M3 S460
M3 S460
G1 X44.37 Y27.13 F400
G1 X44.80 Y27.24
G1 X44.96 Y27.60
G1 X45.05 Y28.03
G1 X44.96 Y28.42
G1 X45.16 Y28.85
M3 S480
G1 X45.15 Y29.34 F550
G1 X44.75 Y29.57
G1 X44.51 Y29.78
G1 X44.15 Y29.93
G1 X43.56 Y29.79
G1 X43.31 Y29.47
M3 S520
G1 X43.14 Y29.01 F850
G1 X43.01 Y28.63
G1 X43.25 Y28.23
G1 X43.44 Y27.84
G1 X43.60 Y27.52
G1 X43.95 Y27.27
M3 S540
G1 X44.35 Y27.14 F1000
G4 P30
M5
M5
G0 X42.98 Y28.97
G4 P50
M3 S460
M3 S460
G1 X42.98 Y28.97 F400
G1 X42.69 Y29.33
G1 X42.32 Y29.78
G1 X41.94 Y29.62
G1 X41.44 Y29.37
G4 P30
M5
M5
G0 X44.95 Y29.47
G4 P50
M3 S460
M3 S460
G1 X44.95 Y29.47 F400
G1 X45.00 Y30.10
G1 X45.20 Y30.60
G1 X45.68 Y30.32
G1 X46.01 Y29.90
G4 P30
M5
M5
G0 X45.01 Y30.70
G4 P50
M3 S460
M3 S460
G1 X45.01 Y30.70 F400
G1 X45.00 Y31.12
G1 X44.77 Y31.45
G1 X44.50 Y31.74
G1 X44.40 Y32.17
G1 X44.36 Y32.54
M3 S487
G1 X44.29 Y33.01 F607
G1 X44.41 Y33.42
G1 X44.60 Y33.70
G1 X44.90 Y33.91
G1 X45.03 Y33.53
G1 X45.14 Y33.00
M3 S532
G1 X45.23 Y32.64 F942
G1 X45.13 Y32.22
G1 X45.08 Y31.79
G1 X44.98 Y31.36
G4 P30
M5
M5
G0 X51.00 Y27.09
G4 P50
M3 S460
M3 S460
G1 X51.00 Y27.09 F400
G1 X50.83 Y27.51
G1 X50.72 Y27.93
G1 X50.54 Y28.37
G1 X50.71 Y28.82
G1 X50.39 Y29.29
M3 S505
G1 X50.33 Y29.70 F742
G1 X50.26 Y30.19
G1 X50.02 Y30.62
G1 X50.09 Y31.04
G1 X50.11 Y31.55
G1 X50.14 Y32.00
G4 P30
M5
M5
G0 X50.99 Y27.37
G4 P50
M3 S460
M3 S460
G1 X50.99 Y27.37 F400
G1 X51.07 Y27.82
G1 X51.13 Y28.25
G1 X51.20 Y28.67
G1 X51.26 Y29.15
G1 X51.28 Y29.59
M3 S487
G1 X51.50 Y30.00 F607
G1 X51.37 Y30.49
G1 X51.29 Y30.94
G1 X51.66 Y31.35
G1 X52.07 Y31.23
G1 X51.98 Y30.78
M3 S532
G1 X52.14 Y30.35 F942
G1 X52.22 Y29.94
G1 X52.38 Y29.52
G1 X52.45 Y29.10
G4 P30
M5
M5
G0 X49.46 Y27.40
G4 P50
M3 S460
M3 S460
G1 X49.46 Y27.40 F400
G1 X49.64 Y27.86
G1 X49.86 Y28.33
G1 X49.80 Y28.85
G1 X49.96 Y29.42
G1 X49.93 Y29.95
M3 S540
G1 X50.11 Y30.46 F1000
G4 P30
M5
M5
G0 X49.52 Y27.42
G4 P50
M3 S460
M3 S460
G1 X49.52 Y27.42 F400
G1 X49.53 Y27.75
G1 X49.35 Y28.09
G1 X49.16 Y28.37
G4 P30
M5
M5
G0 X55.15 Y27.10
G4 P50
M3 S460
M3 S460
G1 X55.15 Y27.10 F400
G1 X55.36 Y27.45
G1 X55.35 Y27.92
G1 X55.31 Y28.32
G1 X55.28 Y28.65
G1 X55.06 Y29.08
M3 S495
G1 X55.01 Y29.56 F663
G1 X54.87 Y29.88
G1 X54.56 Y30.27
G1 X54.57 Y30.69
G1 X54.29 Y31.03
G1 X54.02 Y31.39
M3 S538
G1 X53.78 Y31.68 F991
G1 X53.54 Y32.01
G4 P30
M5
M5
G0 X55.19 Y27.13
G4 P50
M3 S460
M3 S460
G1 X55.19 Y27.13 F400
G1 X54.89 Y27.52
G1 X54.80 Y27.96
G1 X54.69 Y28.56
G1 X54.63 Y29.00
G1 X54.63 Y29.54
M3 S540
G1 X54.69 Y30.06 F1000
G4 P30
M5
M5
G0 X56.31 Y29.79
G4 P50
M3 S460
M3 S460
G1 X56.31 Y29.79 F400
G1 X56.15 Y30.26
G1 X55.99 Y30.70
G1 X55.67 Y31.04
G1 X55.45 Y31.52
G1 X55.02 Y31.54
M3 S536
G1 X54.71 Y31.10 F970
G1 X54.53 Y30.62
G4 P30
M5
M5
G0 X60.83 Y27.04
G4 P50
M3 S460
M3 S460
G1 X60.83 Y27.04 F400
G1 X60.82 Y27.55
G1 X60.66 Y27.95
G1 X60.95 Y28.27
G1 X61.26 Y27.93
G1 X60.82 Y27.54
G4 P30
M5
M5
G0 X57.88 Y27.32
G4 P50
M3 S460
M3 S460
G1 X57.88 Y27.32 F400
G1 X58.01 Y27.97
G1 X57.54 Y28.50
G1 X57.22 Y29.00
G4 P30
M5
M5
G0 X61.67 Y27.46
G4 P50
M3 S460
M3 S460
G1 X61.67 Y27.46 F400
G1 X61.66 Y27.76
G1 X61.35 Y27.92
G1 X61.21 Y28.12
G4 P30
M5
M5
G0 X59.30 Y27.83
G4 P50
M3 S460
M3 S460
G1 X59.30 Y27.83 F400
G1 X59.31 Y28.27
G1 X59.36 Y28.69
G1 X59.39 Y29.14
G1 X59.38 Y29.57
G1 X59.40 Y29.95
M3 S478
G1 X59.23 Y30.32 F535
G1 X59.12 Y30.77
G1 X58.98 Y31.22
G1 X58.89 Y31.47
G1 X58.78 Y31.91
G1 X58.44 Y31.76
M3 S516
G1 X58.11 Y31.31 F820
G1 X58.05 Y30.92
G1 X58.01 Y30.44
G1 X57.91 Y30.02
G1 X57.93 Y29.62
G1 X57.82 Y29.17
M3 S539
G1 X57.77 Y28.72 F995
G1 X57.66 Y28.31
G4 P30
M5
M5
G0 X60.94 Y28.33
G4 P50
M3 S460
M3 S460
G1 X60.94 Y28.33 F400
G1 X61.10 Y28.77
G1 X61.12 Y29.21
G1 X61.17 Y29.63
G1 X60.97 Y30.08
G1 X60.90 Y30.59
M3 S495
G1 X60.83 Y31.07 F663
G1 X60.70 Y31.39
G1 X60.51 Y31.73
G1 X60.01 Y31.77
G1 X59.86 Y31.33
G1 X59.70 Y30.89
M3 S538
G1 X59.59 Y30.46 F991
G1 X59.40 Y30.04
G4 P30
M5
M5
G0 X68.55 Y27.14
G4 P50
M3 S460
M3 S460
G1 X68.55 Y27.14 F400
G1 X68.26 Y27.39
G1 X68.01 Y27.80
G1 X68.02 Y28.20
G1 X67.75 Y28.60
G1 X67.89 Y29.00
M3 S491
G1 X67.85 Y29.41 F633
G1 X67.80 Y29.87
G1 X67.56 Y30.25
G1 X67.40 Y30.66
G1 X67.31 Y31.03
G1 X67.27 Y31.40
M3 S536
G1 X67.03 Y31.76 F970
G1 X66.74 Y31.99
G1 X66.49 Y31.62
G4 P30
M5
M5
G0 X68.80 Y27.15
G4 P50
M3 S460
M3 S460
G1 X68.80 Y27.15 F400
G1 X68.95 Y27.32
G1 X69.08 Y27.50
G1 X69.08 Y27.79
G4 P30
M5
M5
G0 X67.69 Y29.86
G4 P50
M3 S460
M3 S460
G1 X67.69 Y29.86 F400
G1 X67.78 Y30.33
G1 X67.90 Y30.76
G1 X68.12 Y31.13
G1 X68.29 Y31.73
G1 X68.51 Y31.93
M3 S520
G1 X68.98 Y31.71 F850
G1 X69.18 Y31.30
G1 X69.33 Y30.86
G1 X69.29 Y30.40
G4 P30
M5
M5
G0 X71.51 Y25.68
G4 P50
M3 S460
M3 S460
G1 X71.51 Y25.68 F400
G1 X71.71 Y26.05
G1 X71.74 Y26.50
G1 X71.33 Y26.79
G1 X71.26 Y27.26
G1 X71.25 Y27.73
M3 S520
G1 X71.40 Y28.11 F850
G1 X70.87 Y28.38
G1 X70.61 Y28.68
G1 X70.23 Y28.88
G4 P30
M5
M5
G0 X71.58 Y25.72
G4 P50
M3 S460
M3 S460
G1 X71.58 Y25.72 F400
G1 X71.33 Y26.04
G1 X71.47 Y26.48
G1 X71.47 Y26.83
G4 P30
M5
M5
G0 X70.98 Y28.25
G4 P50
M3 S460
M3 S460
G1 X70.98 Y28.25 F400
G1 X71.07 Y28.70
G1 X71.06 Y29.14
G1 X71.13 Y29.60
G1 X71.07 Y30.07
G1 X71.12 Y30.50
M3 S505
G1 X71.55 Y30.32 F742
G1 X71.74 Y29.92
G1 X71.78 Y29.53
G1 X72.12 Y29.20
G1 X72.40 Y28.94
G1 X72.63 Y28.58
G4 P30
M5
M5
G0 X72.53 Y28.89
G4 P50
M3 S460
M3 S460
G1 X72.53 Y28.89 F400
G1 X72.67 Y29.32
G1 X72.68 Y29.78
G1 X72.74 Y30.19
G1 X72.81 Y30.73
G1 X72.81 Y31.03
M3 S520
G1 X73.01 Y31.57 F850
G1 X73.18 Y31.64
G1 X73.62 Y31.28
G1 X73.73 Y30.89
G4 P30
M5
M5
G0 X70.99 Y30.59
G4 P50
M3 S460
M3 S460
G1 X70.99 Y30.59 F400
G1 X70.92 Y31.06
G1 X70.85 Y31.54
G1 X70.84 Y31.99
G4 P30
M5
M5
G0 X76.74 Y27.02
G4 P50
M3 S460
M3 S460
G1 X76.74 Y27.02 F400
G1 X76.60 Y27.37
G1 X76.25 Y27.61
G1 X76.05 Y27.98
G1 X75.93 Y28.36
G1 X75.82 Y28.77
M3 S487
G1 X75.79 Y29.17 F607
G1 X75.40 Y29.56
G1 X75.47 Y29.98
G1 X75.41 Y30.41
G1 X75.40 Y30.86
G1 X75.24 Y31.21
M3 S532
G1 X75.17 Y31.59 F942
G1 X74.90 Y31.95
G1 X74.63 Y31.66
G1 X74.44 Y31.26
G4 P30
M5
M5
G0 X76.95 Y27.32
G4 P50
M3 S460
M3 S460
G1 X76.95 Y27.32 F400
G1 X77.11 Y27.52
G1 X77.02 Y27.77
G1 X77.30 Y27.92
G4 P30
M5
M5
G0 X76.92 Y27.95
G4 P50
M3 S460
M3 S460
G1 X76.92 Y27.95 F400
G1 X76.95 Y28.39
G1 X77.00 Y28.82
G1 X77.06 Y29.27
G1 X77.15 Y29.64
G1 X77.08 Y30.12
M3 S480
G1 X77.24 Y30.60 F550
G1 X77.21 Y30.98
G1 X77.32 Y31.36
G1 X77.01 Y31.71
G1 X76.74 Y31.97
G1 X76.47 Y31.71
M3 S520
G1 X76.18 Y31.26 F850
G1 X76.03 Y30.82
G1 X76.06 Y30.45
G1 X75.99 Y30.02
G1 X75.94 Y29.57
G1 X75.97 Y29.15
M3 S540
G1 X75.91 Y28.71 F1000
G4 P30
M5
M5
G0 X77.90 Y30.35
G4 P50
M3 S460
M3 S460
G1 X77.90 Y30.35 F400
G1 X77.91 Y30.82
G1 X77.86 Y31.33
G1 X77.78 Y31.75
G1 X77.37 Y31.73
G1 X77.18 Y31.23
G4 P30
M5
M5
G0 X79.68 Y25.60
G4 P50
M3 S460
M3 S460
G1 X79.68 Y25.60 F400
G1 X79.87 Y26.03
G1 X79.93 Y26.44
G1 X79.89 Y26.91
G1 X79.95 Y27.32
G1 X79.74 Y27.82
M3 S487
G1 X79.73 Y28.23 F607
G1 X79.83 Y28.76
G1 X79.78 Y29.15
G1 X79.52 Y29.54
G1 X79.56 Y29.97
G1 X79.61 Y30.43
M3 S532
G1 X79.43 Y30.79 F942
G1 X79.27 Y31.22
G1 X79.06 Y31.64
G1 X78.82 Y31.97
G4 P30
M5
M5
G0 X79.80 Y25.60
G4 P50
M3 S460
M3 S460
G1 X79.80 Y25.60 F400
G1 X79.60 Y26.01
G1 X79.54 Y26.48
G1 X79.52 Y26.95
G1 X79.43 Y27.43
G1 X79.48 Y27.97
M3 S528
G1 X79.61 Y28.47 F912
G1 X79.55 Y28.94
G1 X79.67 Y29.43
G4 P30
M5
M5
G0 X80.65 Y30.40
G4 P50
M3 S460
M3 S460
G1 X80.65 Y30.40 F400
G1 X80.46 Y30.85
G1 X80.42 Y31.30
G1 X79.91 Y31.70
G1 X79.65 Y31.41
G1 X79.58 Y30.92
M3 S540
G1 X79.42 Y30.41 F1000
G4 P30
M5
M5
G0 X81.79 Y25.72
G4 P50
M3 S460
M3 S460
G1 X81.79 Y25.72 F400
G1 X81.97 Y26.12
G1 X82.04 Y26.60
G1 X82.01 Y27.00
G1 X81.93 Y27.46
G1 X82.05 Y27.90
M3 S487
G1 X81.89 Y28.34 F607
G1 X81.93 Y28.78
G1 X81.80 Y29.16
G1 X81.71 Y29.59
G1 X81.73 Y30.04
G1 X81.70 Y30.42
M3 S532
G1 X81.47 Y30.86 F942
G1 X81.33 Y31.27
G1 X81.18 Y31.65
G1 X80.94 Y31.99
G4 P30
M5
M5
G0 X81.90 Y25.72
G4 P50
M3 S460
M3 S460
G1 X81.90 Y25.72 F400
G1 X81.67 Y26.14
G1 X81.60 Y26.62
G1 X81.56 Y27.04
G1 X81.79 Y27.47
G1 X81.61 Y28.00
M3 S528
G1 X81.61 Y28.55 F912
G1 X81.59 Y29.01
G1 X81.78 Y29.49
G4 P30
M5
M5
G0 X82.74 Y30.44
G4 P50
M3 S460
M3 S460
